; generated by SuperSlicer 2.3.57 on 2021-11-11 at 04:29:01 UTC

; 

; external perimeters extrusion width = 0.43mm
; perimeters extrusion width = 0.48mm
; infill extrusion width = 0.46mm
; solid infill extrusion width = 0.48mm
; top infill extrusion width = 0.46mm
; first layer extrusion width = 0.58mm

; object:{"name":"Back face","id":"Back face.stl id:0 copy 0","object_center":[168.427450,165.867437,0.000000],"boundingbox_center":[168.427450,165.867437,9.900000],"boundingbox_size":[289.360582,289.360582,19.800000]}
; Total objects to print: 1
M486 T1
; plater:{"center":[168.427450,165.867437,0.000000],"boundingbox_center":[168.427450,165.867437,9.900000],"boundingbox_size":[289.360582,289.360582,19.800000]}

;TYPE:Custom
G90 ; use absolute coordinates
M83 ; extruder relative mode
M140 S60 ; set final bed temp
M104 S150 ; set temporary nozzle temp to prevent oozing during homing and auto bed leveling
G4 S10 ; allow partial nozzle warmup
G28 ; home all axis
G1 Z50 F240
G1 X2 Y10 F3000
M104 S205 ; set final nozzle temp
M190 S60 ; wait for bed temp to stabilize
M109 S205 ; wait for nozzle temp to stabilize
G1 Z0.28 F240
G92 E0
G1 Y140 E10 F1500 ; prime the nozzle
G1 X2.3 F5000
G92 E0
G1 Y10 E10 F1200 ; prime the nozzle
G92 E0
M107
G21 ; set units to millimeters
G90 ; use absolute coordinates
M82 ; use absolute distances for extrusion
G92 E0
; Filament gcode
;LAYER_CHANGE
;Z:0.2
;HEIGHT:0.2
;BEFORE_LAYER_CHANGE
;0.2


G1 E-6 F3600
G1 Z0.2 F9000
;AFTER_LAYER_CHANGE
;0.2
G92 E0
M204 P500
G1 X25.037 Y25.037
G1 X50.074 Y50.074
G1 E6 F2400
;TYPE:Skirt
;WIDTH:0.48
G1 F1200
G1 X80.801 Y19.347 E7.57927
G1 X81.459 Y18.83 E7.60968
G1 X82.158 Y18.48 E7.6381
G1 X82.943 Y18.268 E7.66763
G1 X83.655 Y18.22 E7.69357
G1 X84.302 Y18.286 E7.71721
G1 X85.067 Y18.511 E7.7462
G1 X85.728 Y18.855 E7.77329
G1 X86.374 Y19.372 E7.80335
G1 X314.917 Y247.915 E19.54982
G1 X315.531 Y248.714 E19.58646
G1 X315.832 Y249.349 E19.612
G1 X316.004 Y249.971 E19.63545
G1 X316.054 Y251.167 E19.67894
G1 X315.739 Y252.314 E19.72219
G1 X315.437 Y252.878 E19.7454
G1 X314.991 Y253.45 E19.77178
G1 X256.082 Y312.36 E22.79955
G1 X255.286 Y312.971 E22.83604
G1 X254.647 Y313.274 E22.86174
G1 X254.021 Y313.446 E22.88533
G1 X252.807 Y313.49 E22.92949
G1 X252.104 Y313.339 E22.95561
G1 X251.5 Y313.091 E22.97933
G1 X250.497 Y312.378 E23.02408
G1 X21.938 Y83.82 E34.77135
G1 X21.324 Y83.021 E34.80799
G1 X21.021 Y82.381 E34.83369
G1 X20.85 Y81.759 E34.85714
G1 X20.803 Y80.55 E34.90111
G1 X20.954 Y79.847 E34.92726
G1 X21.198 Y79.247 E34.9508
G1 X21.895 Y78.253 E34.99491
G1 X50.032 Y50.116 E36.44107
; INIT printing object Back face.stl id:0 copy 0
G92 E0
G1 E-4.2 F3600
;WIPE_START
G1 F7200
G1 X52.577 Y47.571 E-5.91
;WIPE_END
G1 E-6 F3600
; printing object Back face.stl id:0 copy 0
M486 S0
G1 X37.741 Y65.565 F9000
G1 X25.45 Y81.015
G1 E0 F2400
;TYPE:Internal perimeter
;WIDTH:0.58
G1 F1200
G1 X83.575 Y22.89 E3.67092
G1 X311.405 Y250.72 E18.05985
G1 X253.28 Y308.845 E21.73077
G1 X25.493 Y81.057 E36.11702
G1 X25.108 Y81.052 F9000
G1 X24.724 Y81.048
;TYPE:External perimeter
G1 F1200
G1 X24.712 Y81.02 E36.11835
G1 X24.724 Y80.981 E36.12018
G1 X83.541 Y22.164 E39.83488
G1 X83.569 Y22.152 E39.83621
G1 X83.603 Y22.159 E39.83777
G1 X312.131 Y250.687 E54.27078
G1 X312.143 Y250.714 E54.27211
G1 X312.135 Y250.748 E54.27366
G1 X253.313 Y309.571 E57.98867
G1 X253.286 Y309.583 E57.99
G1 X253.252 Y309.575 E57.99156
G1 X24.766 Y81.09 E72.42189
G1 X24.726 Y81.041 F9000
G1 X25.482 Y81.141
G1 X26.197 Y81.192
;TYPE:Solid infill
;WIDTH:0.584311
G1 F1800
G1 X26.727 Y80.307 E72.46828
G1 X26.658 Y80.945 F9000
G1 X26.589 Y81.583
G1 F1800
G1 X27.002 Y80.88 E72.50498
G1 X28.343 Y78.692 E72.62045
G92 E0
G1 E-4.2 F3600
;WIPE_START
G1 F7200
G1 X27.002 Y80.88 E-5.41909
G1 X26.589 Y81.583 E-5.8066
;WIPE_END
G1 E-6 F3600
G1 X29.209 Y77.825 F9000
G1 X30.076 Y76.959
G1 E0 F2400
G1 F1800
G1 X28.968 Y78.698 E0.09275
G1 X27.417 Y81.233 E0.22646
G1 X26.981 Y81.976 E0.26522
G1 X27.177 Y82.171 F9000
G1 X27.373 Y82.367
G1 F1800
G1 X28.495 Y80.487 E0.36374
G1 X30.062 Y77.968 E0.49723
G1 X31.675 Y75.477 E0.63073
G1 X31.916 Y75.119 E0.65012
G92 E0
G1 E-4.2 F3600
;WIPE_START
G1 F7200
G1 X31.675 Y75.477 E-4.40479
G1 X30.062 Y77.968 E-5.81418
G1 X29.956 Y78.139 E-5.91
;WIPE_END
G1 E-6 F3600
G1 X32.92 Y74.114 F9000
G1 X33.925 Y73.109
G1 E0 F2400
G1 F1800
G1 X33.506 Y73.712 E0.03304
G1 X31.859 Y76.174 E0.16632
G1 X30.256 Y78.666 E0.29959
G1 X28.699 Y81.186 E0.43287
G1 X27.766 Y82.76 E0.51521
G1 X27.96 Y82.955 F9000
G1 X28.155 Y83.149
G1 F1800
G1 X29.565 Y80.796 E0.63865
G1 X31.132 Y78.288 E0.7717
G1 X32.744 Y75.808 E0.90476
G1 X34.4 Y73.358 E1.03781
G1 X36.101 Y70.938 E1.17087
G1 X36.114 Y70.921 E1.17184
G92 E0
G1 E-4.2 F3600
;WIPE_START
G1 F7200
G1 X36.101 Y70.938 E-4.21023
G1 X34.4 Y73.358 E-5.61502
G1 X34.052 Y73.872 E-5.91
;WIPE_END
G1 E-6 F3600
G1 X37.378 Y69.657 F9000
G1 X38.642 Y68.393
G1 E0 F2400
G1 F1800
G1 X37.754 Y69.577 E0.06657
G1 X36.025 Y71.97 E0.19941
G1 X34.34 Y74.395 E0.33225
G1 X32.7 Y76.85 E0.46508
G1 X31.105 Y79.334 E0.59792
G1 X29.555 Y81.847 E0.73075
G1 X28.55 Y83.545 E0.81949
G1 X28.745 Y83.74 F9000
G1 X28.941 Y83.935
G1 F1800
G1 X30.201 Y81.816 E0.93041
G1 X31.754 Y79.311 E1.06303
G1 X33.353 Y76.835 E1.19564
G1 X34.996 Y74.387 E1.32826
G1 X36.684 Y71.971 E1.46088
G1 X38.415 Y69.585 E1.59349
G1 X40.189 Y67.231 E1.72611
G1 X41.582 Y65.452 E1.82777
G92 E0
G1 E-4.2 F3600
;WIPE_START
G1 F7200
G1 X40.189 Y67.231 E-5.27327
G1 X39.383 Y68.302 E-5.91
;WIPE_END
G1 E-6 F3600
G1 X43.471 Y63.564 F9000
G1 X45.359 Y61.676
G1 E0 F2400
G1 F1800
G1 X45.344 Y61.694 E0.00106
G1 X43.464 Y63.958 E0.13346
G1 X41.626 Y66.257 E0.26586
G1 X39.831 Y68.588 E0.39825
G1 X38.078 Y70.952 E0.53065
G1 X36.369 Y73.348 E0.66305
G1 X34.704 Y75.774 E0.79544
G1 X33.083 Y78.23 E0.92784
G1 X31.508 Y80.716 E1.06023
G1 X29.978 Y83.229 E1.19263
G1 X29.335 Y84.33 E1.24996
G1 X29.532 Y84.526 F9000
G1 X29.728 Y84.723
G1 F1800
G1 X30.403 Y83.565 E1.31026
G1 X31.929 Y81.055 E1.44243
G1 X33.501 Y78.573 E1.5746
G1 X35.118 Y76.12 E1.70678
G1 X36.78 Y73.697 E1.83895
G1 X38.486 Y71.305 E1.97113
G1 X40.235 Y68.945 E2.1033
G1 X42.027 Y66.616 E2.23548
G1 X43.861 Y64.321 E2.36766
G1 X45.737 Y62.06 E2.49984
G1 X47.654 Y59.834 E2.63202
G1 X49.611 Y57.643 E2.7642
G1 X51.608 Y55.488 E2.89638
G1 X53.13 Y53.905 E2.99518
G92 E0
G1 E-4.2 F3600
;WIPE_START
G1 F7200
G1 X51.608 Y55.488 E-5.24319
G1 X50.654 Y56.518 E-5.91
;WIPE_END
G1 E-6 F3600
G1 X54.828 Y52.207 F9000
G1 X56.525 Y50.509
G1 E0 F2400
G1 F1800
G1 X57.831 Y49.247 E0.08168
G1 X59.98 Y47.244 E0.21386
G1 X62.165 Y45.28 E0.34605
G1 X64.386 Y43.357 E0.47823
G1 X66.642 Y41.474 E0.61041
G1 X68.932 Y39.633 E0.7426
G1 X71.255 Y37.835 E0.87479
G1 X73.61 Y36.079 E1.00697
G1 X75.998 Y34.366 E1.13916
G1 X78.416 Y32.697 E1.27135
G1 X80.864 Y31.073 E1.40354
G1 X83.342 Y29.493 E1.53573
G1 X85.848 Y27.96 E1.66792
G1 X87.251 Y27.136 E1.7411
G1 X87.446 Y27.331 F9000
G1 X87.641 Y27.526
G1 F1800
G1 X87.251 Y27.751 E1.76134
G1 X84.737 Y29.262 E1.89331
G1 X82.25 Y30.818 E2.02528
G1 X79.793 Y32.42 E2.15725
G1 X77.366 Y34.066 E2.28921
G1 X74.969 Y35.757 E2.42118
G1 X72.603 Y37.491 E2.55315
G1 X70.269 Y39.268 E2.68511
G1 X67.969 Y41.088 E2.81708
G1 X65.702 Y42.95 E2.94904
G1 X63.47 Y44.852 E3.081
G1 X61.273 Y46.795 E3.21297
G1 X59.112 Y48.778 E3.34493
G1 X56.987 Y50.801 E3.47689
G1 X54.9 Y52.862 E3.60885
G1 X52.851 Y54.96 E3.74081
G1 X50.841 Y57.096 E3.87277
G1 X48.87 Y59.269 E4.00473
G1 X46.939 Y61.477 E4.13669
G1 X45.05 Y63.72 E4.26864
G1 X43.201 Y65.997 E4.4006
G1 X41.395 Y68.307 E4.53256
G1 X39.631 Y70.651 E4.66451
G1 X37.91 Y73.026 E4.79647
G1 X36.233 Y75.432 E4.92842
G1 X34.601 Y77.869 E5.06038
G1 X33.013 Y80.335 E5.19233
G1 X31.471 Y82.83 E5.32428
G1 X30.117 Y85.112 E5.44367
G1 X30.315 Y85.309 F9000
G1 X30.512 Y85.507
G1 F1800
G1 X31.669 Y83.542 E5.54626
G1 X33.201 Y81.046 E5.67799
G1 X34.778 Y78.579 E5.80973
G1 X36.4 Y76.142 E5.94146
G1 X38.067 Y73.734 E6.07319
G1 X39.777 Y71.358 E6.20492
G1 X41.531 Y69.013 E6.33666
G1 X43.328 Y66.701 E6.46839
G1 X45.166 Y64.422 E6.60013
G1 X47.047 Y62.177 E6.73186
G1 X48.968 Y59.968 E6.8636
G1 X50.929 Y57.793 E6.99534
G1 X52.93 Y55.655 E7.12708
G1 X54.969 Y53.555 E7.25881
G1 X57.047 Y51.491 E7.39055
G1 X59.163 Y49.467 E7.52229
G1 X61.315 Y47.481 E7.65403
G1 X63.503 Y45.535 E7.78578
G1 X65.727 Y43.63 E7.91752
G1 X67.985 Y41.766 E8.04926
G1 X70.277 Y39.943 E8.181
G1 X72.602 Y38.163 E8.31275
G1 X74.959 Y36.426 E8.44449
G1 X77.348 Y34.732 E8.57624
G1 X79.767 Y33.083 E8.70798
G1 X82.217 Y31.478 E8.83973
G1 X84.695 Y29.918 E8.97148
G1 X87.201 Y28.404 E9.10322
G1 X88.035 Y27.921 E9.14658
G1 X88.23 Y28.116 F9000
G1 X88.425 Y28.31
G1 F1800
G1 X88.221 Y28.427 E9.15717
G1 X85.71 Y29.925 E9.28869
G1 X83.228 Y31.469 E9.42022
G1 X80.774 Y33.058 E9.55175
G1 X78.35 Y34.692 E9.68327
G1 X75.956 Y36.371 E9.81479
G1 X73.594 Y38.092 E9.94632
G1 X71.263 Y39.857 E10.07784
G1 X68.966 Y41.665 E10.20936
G1 X66.702 Y43.514 E10.34088
G1 X64.472 Y45.405 E10.4724
G1 X62.278 Y47.336 E10.60392
G1 X60.119 Y49.308 E10.73544
G1 X57.997 Y51.318 E10.86696
G1 X55.912 Y53.367 E10.99848
G1 X53.866 Y55.455 E11.12999
G1 X51.858 Y57.579 E11.26151
G1 X49.889 Y59.74 E11.39302
G1 X47.961 Y61.937 E11.52454
G1 X46.073 Y64.168 E11.65605
G1 X44.226 Y66.434 E11.78757
G1 X42.422 Y68.734 E11.91908
G1 X40.66 Y71.066 E12.05059
G1 X38.941 Y73.431 E12.18211
G1 X37.265 Y75.826 E12.31362
G1 X35.635 Y78.252 E12.44513
G1 X34.049 Y80.707 E12.57664
G1 X32.508 Y83.192 E12.70815
G1 X31.013 Y85.704 E12.83965
G1 X30.903 Y85.897 E12.84969
G1 X31.1 Y86.095 F9000
G1 X31.298 Y86.292
G1 F1800
G1 X32.475 Y84.286 E12.95436
G1 X33.998 Y81.797 E13.08565
G1 X35.567 Y79.336 E13.21693
G1 X37.181 Y76.905 E13.34822
G1 X38.839 Y74.503 E13.47951
G1 X40.541 Y72.133 E13.6108
G1 X42.286 Y69.794 E13.74209
G1 X44.075 Y67.488 E13.87338
G1 X45.905 Y65.215 E14.00467
G1 X47.777 Y62.977 E14.13597
G1 X49.689 Y60.773 E14.26726
G1 X51.642 Y58.604 E14.39855
G1 X53.635 Y56.472 E14.52985
G1 X55.667 Y54.377 E14.66114
G1 X57.736 Y52.32 E14.79244
G1 X59.844 Y50.301 E14.92373
G1 X61.988 Y48.321 E15.05503
G1 X64.168 Y46.381 E15.18633
G1 X66.383 Y44.481 E15.31762
G1 X68.633 Y42.623 E15.44892
G1 X70.917 Y40.806 E15.58022
G1 X73.234 Y39.032 E15.71152
G1 X75.583 Y37.3 E15.84282
G1 X77.964 Y35.612 E15.97412
G1 X80.376 Y33.968 E16.10542
G1 X82.817 Y32.369 E16.23673
G1 X85.287 Y30.815 E16.36803
G1 X87.785 Y29.306 E16.49933
G1 X88.821 Y28.707 E16.55318
G1 X89.017 Y28.903 F9000
G1 X89.214 Y29.099
G1 F1800
G1 X88.412 Y29.56 E16.59479
G1 X85.914 Y31.06 E16.72588
G1 X83.444 Y32.605 E16.85696
G1 X81.003 Y34.195 E16.98804
G1 X78.591 Y35.831 E17.11912
G1 X76.211 Y37.51 E17.25019
G1 X73.861 Y39.233 E17.38127
G1 X71.544 Y40.999 E17.51235
G1 X69.26 Y42.807 E17.64343
G1 X67.009 Y44.657 E17.7745
G1 X64.793 Y46.549 E17.90558
G1 X62.612 Y48.48 E18.03665
G1 X60.467 Y50.452 E18.16773
G1 X58.359 Y52.463 E18.2988
G1 X56.288 Y54.512 E18.42987
G1 X54.256 Y56.6 E18.56095
G1 X52.262 Y58.724 E18.69202
G1 X50.308 Y60.884 E18.82309
G1 X48.394 Y63.081 E18.95416
G1 X46.521 Y65.312 E19.08523
G1 X44.689 Y67.577 E19.2163
G1 X42.899 Y69.876 E19.34737
G1 X41.152 Y72.207 E19.47843
G1 X39.449 Y74.571 E19.6095
G1 X37.789 Y76.965 E19.74057
G1 X36.173 Y79.389 E19.87163
G1 X34.603 Y81.843 E20.0027
G1 X33.078 Y84.325 E20.13376
G1 X31.688 Y86.683 E20.25691
G1 X31.887 Y86.882 F9000
G1 X32.085 Y87.08
G1 F1800
G1 X32.818 Y85.811 E20.32283
G1 X34.318 Y83.32 E20.45367
G1 X35.864 Y80.856 E20.58451
G1 X37.455 Y78.422 E20.71535
G1 X39.091 Y76.018 E20.8462
G1 X40.771 Y73.644 E20.97704
G1 X42.494 Y71.301 E21.10788
G1 X44.261 Y68.991 E21.23873
G1 X46.07 Y66.713 E21.36957
G1 X47.92 Y64.47 E21.50042
G1 X49.812 Y62.261 E21.63127
G1 X51.744 Y60.087 E21.76212
G1 X53.716 Y57.949 E21.89296
G1 X55.728 Y55.849 E22.02381
G1 X57.777 Y53.785 E22.15466
G1 X59.865 Y51.76 E22.28551
G1 X61.989 Y49.774 E22.41636
G1 X64.15 Y47.827 E22.54721
G1 X66.346 Y45.92 E22.67807
G1 X68.577 Y44.054 E22.80892
G1 X70.843 Y42.23 E22.93977
G1 X73.141 Y40.448 E23.07063
G1 X75.473 Y38.709 E23.20148
G1 X77.835 Y37.013 E23.33234
G1 X80.229 Y35.361 E23.46319
G1 X82.653 Y33.753 E23.59405
G1 X85.106 Y32.191 E23.72491
G1 X87.588 Y30.674 E23.85577
G1 X89.606 Y29.491 E23.96099
G1 X89.802 Y29.687 F9000
G1 X89.998 Y29.883
G1 F1800
G1 X87.816 Y31.163 E24.07477
G1 X85.34 Y32.678 E24.20541
G1 X82.891 Y34.239 E24.33604
G1 X80.472 Y35.845 E24.46667
G1 X78.083 Y37.495 E24.59731
G1 X75.725 Y39.19 E24.72794
G1 X73.399 Y40.927 E24.85857
G1 X71.105 Y42.707 E24.9892
G1 X68.845 Y44.53 E25.11983
G1 X66.619 Y46.394 E25.25046
G1 X64.427 Y48.299 E25.38109
G1 X62.271 Y50.243 E25.51172
G1 X60.152 Y52.228 E25.64235
G1 X58.07 Y54.251 E25.77297
G1 X56.025 Y56.313 E25.9036
G1 X54.019 Y58.412 E26.03422
G1 X52.052 Y60.547 E26.16485
G1 X50.125 Y62.719 E26.29547
G1 X48.239 Y64.926 E26.4261
G1 X46.393 Y67.167 E26.55672
G1 X44.59 Y69.443 E26.68734
G1 X42.828 Y71.751 E26.81796
G1 X41.11 Y74.091 E26.94859
G1 X39.436 Y76.463 E27.07921
G1 X37.805 Y78.865 E27.20983
G1 X36.22 Y81.297 E27.34044
G1 X34.679 Y83.758 E27.47106
G1 X33.185 Y86.247 E27.60168
G1 X32.479 Y87.473 E27.66534
G1 X32.674 Y87.668 F9000
G1 X32.869 Y87.864
G1 F1800
G1 X34.17 Y85.637 E27.78135
G1 X35.678 Y83.163 E27.91174
G1 X37.232 Y80.716 E28.04214
G1 X38.831 Y78.299 E28.17253
G1 X40.475 Y75.912 E28.30293
G1 X42.162 Y73.555 E28.43333
G1 X43.893 Y71.23 E28.56372
G1 X45.667 Y68.938 E28.69412
G1 X47.483 Y66.679 E28.82452
G1 X49.34 Y64.454 E28.95492
G1 X51.239 Y62.264 E29.08532
G1 X53.177 Y60.109 E29.21572
G1 X55.155 Y57.991 E29.34612
G1 X57.173 Y55.909 E29.47652
G1 X59.228 Y53.866 E29.60693
G1 X61.321 Y51.861 E29.73733
G1 X63.451 Y49.894 E29.86774
G1 X65.616 Y47.968 E29.99814
G1 X67.817 Y46.082 E30.12855
G1 X70.053 Y44.237 E30.25895
G1 X72.323 Y42.434 E30.38936
G1 X74.625 Y40.674 E30.51977
G1 X76.96 Y38.956 E30.65017
G1 X79.326 Y37.282 E30.78058
G1 X81.723 Y35.652 E30.91099
G1 X84.15 Y34.066 E31.0414
G1 X86.605 Y32.526 E31.17181
G1 X89.089 Y31.032 E31.30223
G1 X90.394 Y30.279 E31.36999
G1 X90.59 Y30.475 F9000
G1 X90.786 Y30.671
G1 F1800
G1 X88.909 Y31.762 E31.46764
G1 X86.435 Y33.262 E31.59783
G1 X83.989 Y34.808 E31.72802
G1 X81.572 Y36.399 E31.8582
G1 X79.185 Y38.035 E31.98839
G1 X76.828 Y39.714 E32.11857
G1 X74.504 Y41.437 E32.24876
G1 X72.212 Y43.203 E32.37894
G1 X69.953 Y45.011 E32.50912
G1 X67.727 Y46.861 E32.63931
G1 X65.537 Y48.752 E32.76949
G1 X63.382 Y50.683 E32.89967
G1 X61.263 Y52.653 E33.02985
G1 X59.182 Y54.663 E33.16003
G1 X57.138 Y56.711 E33.29021
G1 X55.132 Y58.797 E33.42038
G1 X53.165 Y60.919 E33.55056
G1 X51.238 Y63.077 E33.68074
G1 X49.352 Y65.271 E33.81091
G1 X47.506 Y67.5 E33.94109
G1 X45.703 Y69.762 E34.07126
G1 X43.941 Y72.058 E34.20144
G1 X42.223 Y74.385 E34.33161
G1 X40.548 Y76.744 E34.46178
G1 X38.917 Y79.134 E34.59196
G1 X37.331 Y81.554 E34.72213
G1 X35.79 Y84.003 E34.8523
G1 X34.294 Y86.48 E34.98247
G1 X33.265 Y88.259 E35.07496
G1 X33.46 Y88.454 F9000
G1 X33.655 Y88.65
G1 F1800
G1 X35.034 Y86.285 E35.19813
G1 X36.536 Y83.818 E35.32808
G1 X38.083 Y81.378 E35.45802
G1 X39.675 Y78.969 E35.58797
G1 X41.312 Y76.589 E35.71792
G1 X42.993 Y74.24 E35.84787
G1 X44.717 Y71.922 E35.97781
G1 X46.484 Y69.637 E36.10776
G1 X48.293 Y67.386 E36.23772
G1 X50.143 Y65.168 E36.36767
G1 X52.035 Y62.985 E36.49762
G1 X53.967 Y60.838 E36.62757
G1 X55.938 Y58.727 E36.75752
G1 X57.948 Y56.653 E36.88748
G1 X59.997 Y54.616 E37.01743
G1 X62.083 Y52.618 E37.14739
G1 X64.206 Y50.66 E37.27734
G1 X66.365 Y48.741 E37.4073
G1 X68.559 Y46.862 E37.53726
G1 X70.788 Y45.025 E37.66721
G1 X73.051 Y43.229 E37.79717
G1 X75.346 Y41.476 E37.92713
G1 X77.674 Y39.765 E38.05709
G1 X80.033 Y38.098 E38.18705
G1 X82.423 Y36.476 E38.31701
G1 X84.843 Y34.898 E38.44697
G1 X87.291 Y33.365 E38.57694
G1 X89.768 Y31.878 E38.7069
G1 X91.18 Y31.066 E38.78021
G1 X91.375 Y31.26 F9000
G1 X91.57 Y31.455
G1 F1800
G1 X89.175 Y32.854 E38.90498
G1 X86.712 Y34.354 E39.03472
G1 X84.278 Y35.9 E39.16445
G1 X81.873 Y37.491 E39.29419
G1 X79.498 Y39.127 E39.42393
G1 X77.154 Y40.806 E39.55366
G1 X74.842 Y42.529 E39.6834
G1 X72.562 Y44.295 E39.81313
G1 X70.315 Y46.102 E39.94286
