;FLAVOR:Marlin
;TIME:26498
;Filament used: 25.3832m
;Layer height: 0.28
;MINX:14.046
;MINY:17.325
;MINZ:0.28
;MAXX:360.264
;MAXY:123.542
;MAXZ:19.88
;Generated with Cura_SteamEngine 4.11.0
M140 S50
M105
M190 S50
M104 S200
M105
M109 S200
M82 ;absolute extrusion mode
M201 X500.00 Y500.00 Z100.00 E5000.00 ;Setup machine max acceleration
M203 X500.00 Y500.00 Z10.00 E50.00 ;Setup machine max feedrate
M204 P500.00 R1000.00 T500.00 ;Setup Print/Retract/Travel acceleration
M205 X8.00 Y8.00 Z0.40 E5.00 ;Setup Jerk
M220 S100 ;Reset Feedrate
M221 S100 ;Reset Flowrate

G28 ;Home

G92 E0 ;Reset Extruder
G1 Z2.0 F3000 ;Move Z Axis up
G1 X10.1 Y20 Z0.28 F5000.0 ;Move to start position
G1 X10.1 Y200.0 Z0.28 F1500.0 E15 ;Draw the first line
G1 X10.4 Y200.0 Z0.28 F5000.0 ;Move to side a little
G1 X10.4 Y20 Z0.28 F1500.0 E30 ;Draw the second line
G92 E0 ;Reset Extruder
G1 Z2.0 F3000 ;Move Z Axis up

G92 E0
G92 E0
G1 F2700 E-5
;LAYER_COUNT:71
;LAYER:0
M107
G0 F6000 X17.98 Y20.182 Z0.28
;TYPE:SKIRT
G1 F2700 E0
G1 F1200 X18.709 Y19.593 E0.04364
G1 X19.486 Y19.067 E0.08733
G1 X20.305 Y18.61 E0.131
G1 X21.071 Y18.26 E0.17022
G1 X21.273 Y18.177 E0.18039
G1 X22.155 Y17.858 E0.22406
G1 X23.061 Y17.615 E0.26774
G1 X23.984 Y17.451 E0.31139
G1 X24.488 Y17.394 E0.33501
G1 X24.749 Y17.371 E0.34721
G1 X25.6 Y17.33 E0.38688
G1 X26.099 Y17.325 E0.41012
G1 X348.057 Y17.325 E15.40183
G1 X348.937 Y17.337 E15.44281
G1 X349.874 Y17.392 E15.48652
G1 X350.802 Y17.526 E15.53018
G1 X351.715 Y17.738 E15.57382
G1 X352.37 Y17.943 E15.60578
G1 X352.644 Y18.038 E15.61928
G1 X353.517 Y18.383 E15.66299
G1 X354.356 Y18.8 E15.70662
G1 X355.157 Y19.288 E15.75029
G1 X355.914 Y19.842 E15.79397
G1 X356.621 Y20.459 E15.83767
G1 X357.445 Y21.333 E15.8936
G1 X357.608 Y21.526 E15.90536
G1 X358.182 Y22.268 E15.94905
G1 X358.691 Y23.056 E15.99273
G1 X359.131 Y23.884 E16.03639
G1 X359.498 Y24.747 E16.08006
G1 X359.869 Y25.93 E16.13779
G1 X359.918 Y26.124 E16.1471
G1 X360.109 Y27.043 E16.19081
G1 X360.244 Y28.381 E16.25343
G1 X360.251 Y28.557 E16.26163
G1 X360.259 Y28.864 E16.27593
G1 X360.264 Y29.333 E16.29777
G1 X360.263 Y111.468 E20.12232
G1 X360.252 Y112.209 E20.15683
G1 X360.198 Y113.146 E20.20053
G1 X360.064 Y114.074 E20.24419
G1 X359.852 Y114.988 E20.28788
G1 X359.646 Y115.649 E20.32012
G1 X359.551 Y115.923 E20.33362
G1 X359.206 Y116.796 E20.37733
G1 X358.789 Y117.635 E20.42096
G1 X358.301 Y118.436 E20.46464
G1 X357.747 Y119.193 E20.50832
G1 X357.13 Y119.9 E20.55201
G1 X356.361 Y120.634 E20.60151
G1 X356.174 Y120.796 E20.61303
G1 X355.439 Y121.379 E20.65672
G1 X354.658 Y121.898 E20.70038
G1 X353.835 Y122.348 E20.74406
G1 X352.977 Y122.727 E20.78773
G1 X352.09 Y123.031 E20.83139
G1 X351.626 Y123.157 E20.85378
G1 X351.425 Y123.207 E20.86343
G1 X350.506 Y123.394 E20.9071
G1 X349.12 Y123.526 E20.97193
G1 X348.806 Y123.536 E20.98655
G1 X348.456 Y123.542 E21.00285
G1 X26.084 Y123.542 E36.01385
G1 X25.374 Y123.531 E36.04691
G1 X24.437 Y123.476 E36.09062
G1 X23.509 Y123.342 E36.13428
G1 X22.286 Y123.039 E36.19295
G1 X22.028 Y122.959 E36.20552
G1 X21.145 Y122.643 E36.24919
G1 X20.292 Y122.253 E36.29287
G1 X19.475 Y121.792 E36.33655
G1 X18.701 Y121.263 E36.3802
G1 X17.646 Y120.366 E36.44468
G1 X17.502 Y120.227 E36.454
G1 X16.856 Y119.548 E36.49764
G1 X16.27 Y118.816 E36.54131
G1 X15.748 Y118.036 E36.58501
G1 X15.295 Y117.215 E36.62867
G1 X14.913 Y116.359 E36.67232
G1 X14.634 Y115.566 E36.71146
G1 X14.547 Y115.285 E36.72516
G1 X14.308 Y114.378 E36.76884
G1 X14.147 Y113.454 E36.81251
G1 X14.062 Y112.425 E36.86059
G1 X14.052 Y112.027 E36.87912
G1 X14.046 Y111.406 E36.90804
G1 X14.047 Y29.36 E40.72845
G1 X14.058 Y28.65 E40.76151
G1 X14.113 Y27.713 E40.80522
G1 X14.247 Y26.785 E40.84888
G1 X14.459 Y25.872 E40.89252
G1 X14.724 Y25.047 E40.93287
G1 X14.831 Y24.754 E40.9474
G1 X15.19 Y23.887 E40.99109
G1 X15.622 Y23.055 E41.03474
G1 X16.123 Y22.262 E41.07842
G1 X16.689 Y21.514 E41.1221
G1 X17.215 Y20.924 E41.1589
G1 X17.303 Y20.832 E41.16483
G1 X17.98 Y20.182 E41.20853
G0 F6000 X18.257 Y20.471
G1 F1200 X18.974 Y19.894 E41.25139
G1 X19.739 Y19.382 E41.29425
G1 X20.545 Y18.937 E41.33712
G1 X21.223 Y18.63 E41.37178
G1 X21.425 Y18.547 E41.38195
G1 X22.291 Y18.235 E41.42481
G1 X23.181 Y17.999 E41.46768
G1 X24.524 Y17.793 E41.53095
G1 X24.785 Y17.77 E41.54315
G1 X25.605 Y17.73 E41.58138
G1 X26.099 Y17.725 E41.60438
G1 X348.057 Y17.725 E56.5961
G1 X348.931 Y17.737 E56.6368
G1 X349.85 Y17.791 E56.67966
G1 X350.761 Y17.925 E56.72254
G1 X351.657 Y18.138 E56.76542
G1 X352.239 Y18.321 E56.79383
G1 X352.513 Y18.416 E56.80734
G1 X353.369 Y18.755 E56.85021
G1 X354.193 Y19.167 E56.89311
G1 X354.977 Y19.649 E56.93596
G1 X355.717 Y20.197 E56.97884
G1 X356.406 Y20.808 E57.02172
G1 X357.139 Y21.592 E57.07169
G1 X357.302 Y21.785 E57.08346
G1 X357.865 Y22.513 E57.12631
G1 X358.363 Y23.288 E57.16921
G1 X358.791 Y24.102 E57.21203
G1 X359.147 Y24.951 E57.2549
G1 X359.481 Y26.028 E57.3074
G1 X359.53 Y26.222 E57.31672
G1 X359.717 Y27.124 E57.35961
G1 X359.845 Y28.397 E57.41919
G1 X359.852 Y28.573 E57.42739
G1 X359.859 Y28.869 E57.44118
G1 X359.864 Y29.333 E57.46278
G1 X359.863 Y111.462 E61.28705
G1 X359.852 Y112.203 E61.32156
G1 X359.798 Y113.122 E61.36443
G1 X359.665 Y114.033 E61.4073
G1 X359.453 Y114.929 E61.45017
G1 X359.268 Y115.518 E61.47892
G1 X359.173 Y115.792 E61.49242
G1 X358.834 Y116.648 E61.53529
G1 X358.422 Y117.472 E61.57819
G1 X357.94 Y118.256 E61.62105
G1 X357.392 Y118.996 E61.66392
G1 X356.781 Y119.685 E61.7068
G1 X356.099 Y120.332 E61.75058
G1 X355.912 Y120.494 E61.7621
G1 X355.19 Y121.066 E61.80499
G1 X354.422 Y121.573 E61.84784
G1 X353.613 Y122.012 E61.8907
G1 X352.768 Y122.379 E61.9336
G1 X351.53 Y122.769 E61.99404
G1 X351.329 Y122.819 E62.00368
G1 X350.427 Y123.002 E62.04654
G1 X349.107 Y123.127 E62.10828
G1 X348.793 Y123.137 E62.1229
G1 X348.456 Y123.142 E62.1386
G1 X26.09 Y123.142 E77.14931
G1 X25.38 Y123.131 E77.18237
G1 X24.461 Y123.077 E77.22524
G1 X23.55 Y122.943 E77.26812
G1 X22.405 Y122.656 E77.32308
G1 X22.147 Y122.576 E77.33566
G1 X21.28 Y122.266 E77.37853
G1 X20.444 Y121.881 E77.42139
G1 X19.644 Y121.425 E77.46427
G1 X18.886 Y120.902 E77.50715
G1 X17.924 Y120.079 E77.5661
G1 X17.78 Y119.94 E77.57542
G1 X17.146 Y119.272 E77.61831
G1 X16.573 Y118.552 E77.66115
G1 X16.064 Y117.785 E77.70402
G1 X15.623 Y116.976 E77.74692
G1 X15.254 Y116.133 E77.78977
G1 X15.016 Y115.448 E77.82354
G1 X14.929 Y115.167 E77.83723
G1 X14.695 Y114.277 E77.88009
G1 X14.54 Y113.369 E77.92298
G1 X14.462 Y112.41 E77.96778
G1 X14.452 Y112.023 E77.98581
G1 X14.446 Y111.406 E78.01454
G1 X14.447 Y29.366 E81.83466
G1 X14.458 Y28.656 E81.86773
G1 X14.512 Y27.737 E81.91059
G1 X14.646 Y26.826 E81.95347
G1 X14.859 Y25.93 E81.99635
G1 X15.1 Y25.184 E82.03286
G1 X15.207 Y24.891 E82.04738
G1 X15.56 Y24.041 E82.09024
G1 X15.986 Y23.224 E82.13314
G1 X16.48 Y22.448 E82.17598
G1 X17.041 Y21.717 E82.21889
G1 X17.504 Y21.2 E82.2512
G1 X17.592 Y21.108 E82.25713
G1 X18.257 Y20.471 E82.30001
G0 F6000 X18.534 Y20.76
G1 F1200 X19.239 Y20.196 E82.34205
G1 X19.991 Y19.696 E82.3841
G1 X20.785 Y19.265 E82.42617
G1 X21.375 Y19 E82.45628
G1 X21.577 Y18.917 E82.46645
G1 X22.427 Y18.611 E82.50852
G1 X23.301 Y18.382 E82.55059
G1 X24.559 Y18.191 E82.60984
G1 X24.82 Y18.168 E82.62204
G1 X25.609 Y18.13 E82.65882
G1 X26.099 Y18.125 E82.68164
G1 X348.057 Y18.125 E97.67335
G1 X348.925 Y18.137 E97.71377
G1 X349.827 Y18.191 E97.75585
G1 X350.72 Y18.325 E97.7979
G1 X351.598 Y18.537 E97.83996
G1 X352.108 Y18.699 E97.86487
G1 X352.382 Y18.794 E97.87838
G1 X353.222 Y19.127 E97.92045
G1 X354.028 Y19.533 E97.96248
G1 X354.796 Y20.009 E98.00455
G1 X355.518 Y20.551 E98.04659
G1 X356.19 Y21.155 E98.08866
G1 X356.834 Y21.85 E98.13278
G1 X356.997 Y22.043 E98.14454
G1 X357.548 Y22.758 E98.18657
G1 X358.034 Y23.519 E98.22862
G1 X358.451 Y24.32 E98.27067
G1 X358.796 Y25.155 E98.31274
G1 X359.093 Y26.126 E98.36002
G1 X359.142 Y26.32 E98.36934
G1 X359.325 Y27.205 E98.41142
G1 X359.445 Y28.413 E98.46794
G1 X359.452 Y28.589 E98.47615
G1 X359.459 Y28.874 E98.48942
G1 X359.464 Y29.333 E98.5108
G1 X359.463 Y111.456 E102.33479
G1 X359.452 Y112.197 E102.36929
G1 X359.399 Y113.099 E102.41137
G1 X359.266 Y113.992 E102.45341
G1 X359.054 Y114.87 E102.49547
G1 X358.89 Y115.387 E102.52072
G1 X358.795 Y115.661 E102.53423
G1 X358.462 Y116.501 E102.5763
G1 X358.056 Y117.307 E102.61832
G1 X357.58 Y118.075 E102.6604
G1 X357.038 Y118.797 E102.70244
G1 X356.434 Y119.469 E102.74451
G1 X355.837 Y120.029 E102.78262
G1 X355.65 Y120.191 E102.79414
G1 X354.942 Y120.752 E102.83621
G1 X354.187 Y121.248 E102.87827
G1 X353.391 Y121.675 E102.92033
G1 X352.56 Y122.03 E102.96241
G1 X351.433 Y122.38 E103.01736
G1 X351.232 Y122.43 E103.027
G1 X350.347 Y122.609 E103.06905
G1 X349.095 Y122.727 E103.1276
G1 X348.781 Y122.737 E103.14223
G1 X348.456 Y122.742 E103.15737
G1 X26.096 Y122.742 E118.1678
G1 X25.386 Y122.731 E118.20086
G1 X24.484 Y122.677 E118.24294
G1 X23.591 Y122.543 E118.28499
G1 X22.523 Y122.274 E118.33627
G1 X22.265 Y122.194 E118.34885
G1 X21.415 Y121.889 E118.3909
G1 X20.596 Y121.51 E118.43292
G1 X19.813 Y121.059 E118.475
G1 X19.073 Y120.541 E118.51706
G1 X18.202 Y119.791 E118.57058
G1 X18.058 Y119.652 E118.5799
G1 X17.437 Y118.996 E118.62196
G1 X16.876 Y118.289 E118.66399
G1 X16.38 Y117.534 E118.70605
G1 X15.952 Y116.739 E118.74809
G1 X15.597 Y115.908 E118.79017
G1 X15.398 Y115.33 E118.81863
G1 X15.311 Y115.049 E118.83233
G1 X15.083 Y114.175 E118.87439
G1 X14.932 Y113.285 E118.91643
G1 X14.861 Y112.396 E118.95795
G1 X14.851 Y112.019 E118.97551
G1 X14.846 Y111.505 E118.99945
G1 X14.847 Y29.372 E122.82391
G1 X14.858 Y28.662 E122.85697
G1 X14.912 Y27.76 E122.89905
G1 X15.046 Y26.867 E122.94109
G1 X15.258 Y25.989 E122.98315
G1 X15.476 Y25.321 E123.01587
G1 X15.583 Y25.028 E123.0304
G1 X15.93 Y24.194 E123.07246
G1 X16.349 Y23.395 E123.11447
G1 X16.838 Y22.635 E123.15655
G1 X17.392 Y21.922 E123.19859
G1 X17.793 Y21.477 E123.22649
G1 X17.881 Y21.385 E123.23241
G1 X18.534 Y20.76 E123.2745
G1 F2700 E118.2745
;MESH:Back face.stl
G0 F6000 X25.484 Y27.661
G0 X25.856 Y29.135
G0 X25.828 Y111.761
G0 X348.664 Y111.943
;TYPE:WALL-INNER
G1 F2700 E123.2745
G1 F1200 X25.646 Y111.943 E138.31557
G1 X25.646 Y28.925 E142.18124
G1 X348.664 Y28.925 E157.22231
G1 X348.664 Y111.943 E161.08798
G0 F6000 X349.003 Y112.216
;TYPE:WALL-OUTER
G1 F1200 X348.865 Y112.32 E161.09602
G1 X348.743 Y112.343 E161.1018
G1 X25.568 Y112.343 E176.15019
G1 X25.373 Y112.282 E176.1597
G1 X25.269 Y112.141 E176.16786
G1 X25.246 Y112.026 E176.17332
G1 X25.246 Y28.843 E180.04667
G1 X25.307 Y28.652 E180.056
G1 X25.448 Y28.548 E180.06416
G1 X25.564 Y28.525 E180.06967
G1 X348.746 Y28.525 E195.11838
G1 X348.937 Y28.586 E195.12771
G1 X349.041 Y28.727 E195.13587
G1 X349.064 Y28.843 E195.14138
G1 X349.064 Y112.026 E199.01473
G1 X349.003 Y112.216 E199.02402
G0 F6000 X348.645 Y111.903
G0 X348.274 Y111.553
;TYPE:SKIN
G1 F1200 X26.036 Y111.553 E214.02877
G1 X26.036 Y29.315 E217.85812
G1 X348.274 Y29.315 E232.86287
G1 X348.274 Y111.553 E236.69221
G1 F2700 E231.69221
G0 F6000 X348.554 Y111.553
G0 X26.905 Y111.833
G1 F2700 E236.69221
G0 F6000 X26.905 Y111.192
G1 F1200 X27.471 Y111.192 E236.71857
G1 X26.396 Y110.117 E236.78936
G1 X26.396 Y109.552 E236.81567
G1 X28.036 Y111.192 E236.92367
G1 X28.602 Y111.192 E236.95002
G1 X26.396 Y108.986 E237.09529
G1 X26.396 Y108.42 E237.12164
G1 X29.168 Y111.192 E237.30419
G1 X29.733 Y111.192 E237.33049
G1 X26.396 Y107.854 E237.55027
G1 X26.396 Y107.289 E237.57658
G1 X30.299 Y111.192 E237.8336
G1 X30.865 Y111.192 E237.85996
G1 X26.396 Y106.723 E238.15425
G1 X26.396 Y106.157 E238.1806
G1 X31.43 Y111.192 E238.51213
G1 X31.996 Y111.192 E238.53849
G1 X26.396 Y105.592 E238.90726
G1 X26.396 Y105.026 E238.93362
G1 X32.562 Y111.192 E239.33966
G1 X33.127 Y111.192 E239.36597
G1 X26.396 Y104.46 E239.80925
G1 X26.396 Y103.895 E239.83555
G1 X33.693 Y111.192 E240.31607
G1 X34.259 Y111.192 E240.34243
G1 X26.396 Y103.329 E240.86022
G1 X26.396 Y102.763 E240.88658
G1 X34.825 Y111.192 E241.44164
G1 X35.39 Y111.192 E241.46795
G1 X26.396 Y102.198 E242.06022
G1 X26.396 Y101.632 E242.08658
G1 X35.956 Y111.192 E242.71612
G1 X36.522 Y111.192 E242.74247
G1 X26.396 Y101.066 E243.40929
G1 X26.396 Y100.501 E243.4356
G1 X37.087 Y111.192 E244.13962
G1 X37.653 Y111.192 E244.16597
G1 X26.396 Y99.935 E244.90727
G1 X26.396 Y99.369 E244.93362
G1 X38.219 Y111.192 E245.71219
G1 X38.784 Y111.192 E245.73849
G1 X26.396 Y98.804 E246.55427
G1 X26.396 Y98.238 E246.58062
G1 X39.35 Y111.192 E247.43366
G1 X39.916 Y111.192 E247.46002
G1 X26.396 Y97.672 E248.35033
G1 X26.396 Y97.106 E248.37669
G1 X40.481 Y111.192 E249.30424
G1 X41.047 Y111.192 E249.3306
G1 X26.396 Y96.541 E250.29539
G1 X26.396 Y95.975 E250.32175
G1 X41.613 Y111.192 E251.32381
G1 X42.178 Y111.192 E251.35012
G1 X26.396 Y95.409 E252.38943
G1 X26.396 Y94.844 E252.41574
G1 X42.744 Y111.192 E253.49228
G1 X43.31 Y111.192 E253.51863
G1 X26.396 Y94.278 E254.63245
G1 X26.396 Y93.712 E254.65881
G1 X43.875 Y111.192 E255.80986
G1 X44.441 Y111.192 E255.83622
G1 X26.396 Y93.147 E257.02451
G1 X26.396 Y92.581 E257.05086
G1 X45.007 Y111.192 E258.27643
G1 X45.573 Y111.192 E258.30279
G1 X26.396 Y92.015 E259.56562
G1 X26.396 Y91.45 E259.59193
G1 X46.138 Y111.192 E260.89198
G1 X46.704 Y111.192 E260.91833
G1 X26.396 Y90.884 E262.25565
G1 X26.396 Y90.318 E262.282
G1 X47.27 Y111.192 E263.65659
G1 X47.835 Y111.192 E263.6829
G1 X26.396 Y89.753 E265.0947
G1 X26.396 Y89.187 E265.12105
G1 X48.401 Y111.192 E266.57012
G1 X48.967 Y111.192 E266.59647
G1 X26.396 Y88.621 E268.08281
G1 X26.396 Y88.056 E268.10912
G1 X49.532 Y111.192 E269.63267
G1 X50.098 Y111.192 E269.65902
G1 X26.396 Y87.49 E271.21984
G1 X26.396 Y86.924 E271.2462
G1 X50.664 Y111.192 E272.84428
G1 X51.229 Y111.192 E272.87059
G1 X26.396 Y86.358 E274.50592
G1 X26.396 Y85.793 E274.53223
G1 X51.795 Y111.192 E276.2048
G1 X52.361 Y111.192 E276.23115
G1 X26.396 Y85.227 E277.94099
G1 X26.396 Y84.661 E277.96735
G1 X52.926 Y111.192 E279.71443
G1 X53.492 Y111.192 E279.74078
G1 X26.396 Y84.096 E281.5251
G1 X26.396 Y83.53 E281.55146
G1 X54.058 Y111.192 E283.37305
G1 X54.623 Y111.192 E283.39935
G1 X26.396 Y82.964 E285.25818
G1 X26.396 Y82.399 E285.28449
G1 X55.189 Y111.192 E287.18056
G1 X55.755 Y111.192 E287.20692
G1 X26.396 Y81.833 E289.14026
G1 X26.396 Y81.267 E289.16661
G1 X56.321 Y111.192 E291.13722
G1 X56.886 Y111.192 E291.16353
G1 X26.396 Y80.702 E293.17135
G1 X26.396 Y80.136 E293.19771
G1 X57.452 Y111.192 E295.2428
G1 X58.018 Y111.192 E295.26915
G1 X26.396 Y79.57 E297.35151
G1 X26.396 Y79.005 E297.37782
G1 X58.583 Y111.192 E299.49739
G1 X59.149 Y111.192 E299.52375
G1 X26.396 Y78.439 E301.68059
G1 X26.396 Y77.873 E301.70694
G1 X59.715 Y111.192 E303.90106
G1 X60.28 Y111.192 E303.92737
G1 X26.396 Y77.307 E306.15872
G1 X26.396 Y76.742 E306.18503
G1 X60.846 Y111.192 E308.45362
G1 X61.412 Y111.192 E308.47997
G1 X26.396 Y76.176 E310.78584
G1 X26.396 Y75.61 E310.81219
G1 X61.977 Y111.192 E313.15529
G1 X62.543 Y111.192 E313.18165
G1 X26.396 Y75.045 E315.56199
G1 X26.396 Y74.479 E315.58835
G1 X63.109 Y111.192 E318.00596
G1 X63.674 Y111.192 E318.03227
G1 X26.396 Y73.913 E320.48712
G1 X26.396 Y73.348 E320.51343
G1 X64.24 Y111.192 E323.00552
G1 X64.806 Y111.192 E323.03188
G1 X26.396 Y72.782 E325.56124
G1 X26.396 Y72.216 E325.5876
G1 X65.372 Y111.192 E328.15423
G1 X65.937 Y111.192 E328.18054
G1 X26.396 Y71.651 E330.78439
G1 X26.396 Y71.085 E330.81074
G1 X66.503 Y111.192 E333.45186
G1 X67.069 Y111.192 E333.47821
G1 X26.396 Y70.519 E336.1566
G1 X26.396 Y69.954 E336.18291
G1 X67.634 Y111.192 E338.8985
G1 X68.2 Y111.192 E338.92485
G1 X26.396 Y69.388 E341.67772
G1 X26.396 Y68.822 E341.70407
G1 X68.766 Y111.192 E344.49421
G1 X69.331 Y111.192 E344.52052
G1 X26.396 Y68.257 E347.34786
G1 X26.396 Y67.691 E347.37422
G1 X69.897 Y111.192 E350.23883
G1 X70.463 Y111.192 E350.26519
G1 X26.396 Y67.125 E353.16708
G1 X26.396 Y66.559 E353.19343
G1 X71.028 Y111.192 E356.13256
G1 X71.594 Y111.192 E356.15891
G1 X26.396 Y65.994 E359.13528
G1 X26.396 Y65.428 E359.16163
G1 X72.16 Y111.192 E362.17527
G1 X72.725 Y111.192 E362.20158
G1 X26.396 Y64.862 E365.25246
G1 X26.396 Y64.297 E365.27877
