; generated by SuperSlicer 2.3.57 on 2021-11-11 at 04:45:46 UTC

; 

; external perimeters extrusion width = 0.43mm
; perimeters extrusion width = 0.48mm
; infill extrusion width = 0.46mm
; solid infill extrusion width = 0.48mm
; top infill extrusion width = 0.46mm
; first layer extrusion width = 0.58mm

; object:{"name":"Back face","id":"Back face.stl id:0 copy 0","object_center":[182.714418,63.126724,0.000000],"boundingbox_center":[182.714418,63.126724,9.900000],"boundingbox_size":[325.200012,85.199997,19.800000]}
; Total objects to print: 1
M486 T1
; plater:{"center":[182.714418,63.126724,0.000000],"boundingbox_center":[182.714418,63.126724,9.900000],"boundingbox_size":[325.200012,85.199997,19.800000]}

;TYPE:Custom
G90 ; use absolute coordinates
M83 ; extruder relative mode
M140 S60 ; set final bed temp
M104 S150 ; set temporary nozzle temp to prevent oozing during homing and auto bed leveling
G4 S10 ; allow partial nozzle warmup
G28 ; home all axis
G1 Z50 F240
G1 X2 Y10 F3000
M104 S205 ; set final nozzle temp
M190 S60 ; wait for bed temp to stabilize
M109 S205 ; wait for nozzle temp to stabilize
G1 Z0.28 F240
G92 E0
G1 Y140 E10 F1500 ; prime the nozzle
G1 X2.3 F5000
G92 E0
G1 Y10 E10 F1200 ; prime the nozzle
G92 E0
M107
G21 ; set units to millimeters
G90 ; use absolute coordinates
M82 ; use absolute distances for extrusion
G92 E0
; Filament gcode
;LAYER_CHANGE
;Z:0.2
;HEIGHT:0.2
;BEFORE_LAYER_CHANGE
;0.2


G1 E-6 F3600
G1 Z0.2 F9000
;AFTER_LAYER_CHANGE
;0.2
G92 E0
M204 P500
G1 X9.004 Y9.53
G1 X18.008 Y19.059
G1 E6 F2400
;TYPE:Skirt
;WIDTH:0.48
G1 F1200
G1 X18.884 Y18.25 E6.04335
G1 X19.443 Y17.931 E6.06676
G1 X20.099 Y17.694 E6.09208
G1 X21.114 Y17.559 E6.12932
G1 X344.319 Y17.559 E17.87565
G1 X345.137 Y17.649 E17.90557
G1 X345.85 Y17.872 E17.9327
G1 X346.548 Y18.252 E17.96159
G1 X347.05 Y18.658 E17.98507
G1 X347.527 Y19.201 E18.01131
G1 X347.936 Y19.912 E18.04114
G1 X348.182 Y20.657 E18.06966
G1 X348.282 Y21.492 E18.10021
G1 X348.28 Y104.838 E21.12926
G1 X348.19 Y105.558 E21.15566
G1 X348.007 Y106.163 E21.17862
G1 X347.418 Y107.198 E21.22189
G1 X346.541 Y108.006 E21.26524
G1 X345.986 Y108.323 E21.28848
G1 X345.33 Y108.559 E21.3138
G1 X344.314 Y108.694 E21.35105
G1 X21.088 Y108.694 E33.09818
G1 X19.877 Y108.491 E33.14279
G1 X19.274 Y108.239 E33.16655
G1 X18.671 Y107.852 E33.19257
G1 X17.845 Y106.968 E33.23656
G1 X17.52 Y106.402 E33.26028
G1 X17.282 Y105.743 E33.28576
G1 X17.147 Y104.73 E33.32287
G1 X17.149 Y21.425 E36.35048
G1 X17.237 Y20.704 E36.37687
G1 X17.42 Y20.095 E36.39999
G1 X17.978 Y19.112 E36.44108
; INIT printing object Back face.stl id:0 copy 0
G92 E0
G1 E-4.2 F3600
;WIPE_START
G1 F7200
G1 X18.884 Y18.25 E-4.79384
G1 X19.443 Y17.931 E-5.09969
G1 X20.099 Y17.694 E-5.43065
G1 X21.099 Y17.561 E-5.91
;WIPE_END
G1 E-6 F3600
; printing object Back face.stl id:0 copy 0
M486 S0
G1 X19.796 Y20.569 F9000
G1 X21.614 Y22.027
G1 E0 F2400
;TYPE:Internal perimeter
;WIDTH:0.58
G1 F1200
G1 X343.814 Y22.027 E14.38893
G1 X343.814 Y104.227 E18.05985
G1 X21.614 Y104.227 E32.44877
G1 X21.614 Y22.087 E36.11702
G1 X21.346 Y21.812 F9000
G1 X21.077 Y21.537
;TYPE:External perimeter
G1 F1200
G1 X21.096 Y21.5 E36.11884
G1 X21.124 Y21.49 E36.12018
G1 X344.311 Y21.49 E50.55318
G1 X344.341 Y21.509 E50.55474
G1 X344.352 Y21.537 E50.55607
G1 X344.351 Y104.724 E54.27108
G1 X344.332 Y104.753 E54.27263
G1 X344.305 Y104.764 E54.27397
G1 X21.117 Y104.764 E68.70697
G1 X21.088 Y104.745 E68.70853
G1 X21.077 Y104.717 E68.70986
G1 X21.077 Y21.597 E72.42188
G1 X21.083 Y21.533 F9000
G1 X21.685 Y22.013
G1 X22.293 Y22.429
;TYPE:Solid infill
;WIDTH:0.584292
G1 F1800
G1 X22.077 Y23.268 E72.46082
G1 X22.017 Y23.521 E72.47253
G1 X22.431 Y22.975 F9000
G1 X22.845 Y22.429
G1 F1800
G1 X22.255 Y24.814 E72.58305
G1 X22.017 Y25.852 E72.63095
G92 E0
G1 E-4.2 F3600
;WIPE_START
G1 F7200
G1 X22.255 Y24.814 E-4.70578
G1 X22.845 Y22.429 E-5.87264
;WIPE_END
G1 E-6 F3600
G1 X22.017 Y27.073 F9000
G1 X22.017 Y28.294
G1 E0 F2400
G1 F1800
G1 X22.078 Y28.002 E0.01339
G1 X22.737 Y25.105 E0.14709
G1 X23.397 Y22.429 E0.27106
G1 X23.677 Y22.429 F9000
G1 X23.957 Y22.429
G1 F1800
G1 X23.52 Y24.148 E0.35083
G1 X22.842 Y27.037 E0.48431
G1 X22.217 Y29.937 E0.61779
G1 X22.017 Y30.95 E0.66424
G92 E0
G1 E-4.2 F3600
;WIPE_START
G1 F7200
G1 X22.217 Y29.937 E-4.69047
G1 X22.758 Y27.427 E-5.91
;WIPE_END
G1 E-6 F3600
G1 X22.017 Y32.372 F9000
G1 X22.017 Y33.795
G1 E0 F2400
G1 F1800
G1 X22.064 Y33.525 E0.01233
G1 X22.626 Y30.616 E0.14558
G1 X23.24 Y27.719 E0.27884
G1 X23.907 Y24.833 E0.4121
G1 X24.508 Y22.429 E0.52355
G1 X24.787 Y22.429 F9000
G1 X25.065 Y22.429
G1 F1800
G1 X24.594 Y24.279 E0.60941
G1 X23.916 Y27.157 E0.74245
G1 X23.291 Y30.047 E0.87548
G1 X22.718 Y32.948 E1.00852
G1 X22.197 Y35.859 E1.14156
G1 X22.017 Y36.986 E1.1929
G92 E0
G1 E-4.2 F3600
;WIPE_START
G1 F7200
G1 X22.197 Y35.859 E-4.7421
G1 X22.63 Y33.439 E-5.91
;WIPE_END
G1 E-6 F3600
G1 X22.017 Y38.781 F9000
G1 X22.017 Y40.575
G1 E0 F2400
G1 F1800
G1 X22.114 Y39.858 E0.03256
G1 X22.562 Y36.94 E0.16537
G1 X23.064 Y34.031 E0.29819
G1 X23.618 Y31.131 E0.43101
G1 X24.225 Y28.242 E0.56382
G1 X24.884 Y25.364 E0.69664
G1 X25.596 Y22.499 E0.82946
G1 X25.614 Y22.429 E0.83269
G1 X25.892 Y22.429 F9000
G1 X26.169 Y22.429
G1 F1800
G1 X25.471 Y25.219 E0.96204
G1 X24.808 Y28.09 E1.09464
G1 X24.197 Y30.974 E1.22724
G1 X23.639 Y33.868 E1.35983
G1 X23.134 Y36.772 E1.49243
G1 X22.682 Y39.684 E1.62503
G1 X22.283 Y42.604 E1.75762
G1 X22.017 Y44.854 E1.85954
G92 E0
G1 E-4.2 F3600
;WIPE_START
G1 F7200
G1 X22.283 Y42.604 E-5.2761
G1 X22.464 Y41.282 E-5.91
;WIPE_END
G1 E-6 F3600
G1 X22.017 Y47.671 F9000
G1 X22.017 Y50.488
G1 E0 F2400
G1 F1800
G1 X22.056 Y49.953 E0.02413
G1 X22.321 Y47.022 E0.1565
G1 X22.641 Y44.097 E0.28888
G1 X23.013 Y41.179 E0.42125
G1 X23.439 Y38.267 E0.55363
G1 X23.917 Y35.364 E0.686
G1 X24.449 Y32.47 E0.81838
G1 X25.033 Y29.586 E0.95076
G1 X25.67 Y26.713 E1.08314
G1 X26.36 Y23.853 E1.21551
G1 X26.73 Y22.429 E1.28168
G1 X27.008 Y22.429 F9000
G1 X27.285 Y22.429
G1 F1800
G1 X26.845 Y24.127 E1.3606
G1 X26.159 Y26.984 E1.49276
G1 X25.526 Y29.853 E1.62491
G1 X24.946 Y32.732 E1.75707
G1 X24.418 Y35.622 E1.88923
G1 X23.943 Y38.521 E2.02138
G1 X23.521 Y41.428 E2.15354
G1 X23.153 Y44.342 E2.28569
G1 X22.837 Y47.263 E2.41784
G1 X22.576 Y50.188 E2.55
G1 X22.367 Y53.118 E2.68215
G1 X22.213 Y56.052 E2.8143
G1 X22.112 Y58.987 E2.94645
G1 X22.065 Y61.924 E3.0786
G1 X22.071 Y64.862 E3.21075
G1 X22.131 Y67.799 E3.3429
G1 X22.245 Y70.734 E3.47505
G1 X22.412 Y73.666 E3.60719
G1 X22.633 Y76.595 E3.73934
G1 X22.908 Y79.52 E3.87149
G1 X23.236 Y82.439 E4.00363
G1 X23.617 Y85.351 E4.13578
G1 X24.052 Y88.256 E4.26792
G1 X24.539 Y91.153 E4.40007
G1 X25.08 Y94.04 E4.53221
G1 X25.673 Y96.916 E4.66435
G1 X26.318 Y99.782 E4.79649
G1 X27.016 Y102.635 E4.92864
G1 X27.33 Y103.824 E4.98397
G1 X27.607 Y103.824 F9000
G1 X27.883 Y103.824
G1 F1800
G1 X27.301 Y101.565 E5.08893
G1 X26.622 Y98.712 E5.22085
G1 X25.995 Y95.848 E5.35277
G1 X25.42 Y92.972 E5.48469
G1 X24.898 Y90.087 E5.61661
G1 X24.43 Y87.192 E5.74854
G1 X24.014 Y84.289 E5.88046
G1 X23.651 Y81.379 E6.01238
G1 X23.342 Y78.463 E6.14431
G1 X23.086 Y75.542 E6.27623
G1 X22.884 Y72.617 E6.40816
G1 X22.736 Y69.688 E6.54009
G1 X22.641 Y66.757 E6.67201
G1 X22.6 Y63.825 E6.80394
G1 X22.612 Y60.893 E6.93587
G1 X22.678 Y57.961 E7.0678
G1 X22.798 Y55.031 E7.19973
G1 X22.972 Y52.103 E7.33166
G1 X23.199 Y49.18 E7.46359
G1 X23.479 Y46.261 E7.59552
G1 X23.813 Y43.347 E7.72746
G1 X24.201 Y40.44 E7.85939
G1 X24.641 Y37.541 E7.99132
G1 X25.135 Y34.65 E8.12326
G1 X25.681 Y31.769 E8.25519
G1 X26.28 Y28.898 E8.38713
G1 X26.932 Y26.039 E8.51906
G1 X27.636 Y23.192 E8.651
G1 X27.839 Y22.429 E8.68649
G1 X28.117 Y22.429 F9000
G1 X28.396 Y22.429
G1 F1800
G1 X28.011 Y23.892 E8.75453
G1 X27.319 Y26.737 E8.88625
G1 X26.679 Y29.594 E9.01796
G1 X26.092 Y32.462 E9.14968
G1 X25.557 Y35.341 E9.28139
G1 X25.076 Y38.228 E9.4131
G1 X24.647 Y41.124 E9.54482
G1 X24.272 Y44.028 E9.67653
G1 X23.949 Y46.938 E9.80824
G1 X23.681 Y49.853 E9.93995
G1 X23.466 Y52.773 E10.07166
G1 X23.304 Y55.696 E10.20337
G1 X23.196 Y58.621 E10.33508
G1 X23.142 Y61.549 E10.46678
G1 X23.141 Y64.476 E10.59849
G1 X23.194 Y67.403 E10.7302
G1 X23.301 Y70.329 E10.8619
G1 X23.462 Y73.252 E10.99361
G1 X23.676 Y76.171 E11.12531
G1 X23.944 Y79.087 E11.25702
G1 X24.265 Y81.996 E11.38872
G1 X24.639 Y84.9 E11.52042
G1 X25.067 Y87.796 E11.65212
G1 X25.547 Y90.684 E11.78383
G1 X26.081 Y93.562 E11.91553
G1 X26.667 Y96.43 E12.04723
G1 X27.306 Y99.287 E12.17893
G1 X27.997 Y102.132 E12.31062
G1 X28.441 Y103.824 E12.38934
G1 X28.717 Y103.824 F9000
G1 X28.994 Y103.824
G1 F1800
G1 X28.391 Y101.495 E12.49757
G1 X27.71 Y98.653 E12.62905
G1 X27.082 Y95.799 E12.76053
G1 X26.506 Y92.934 E12.892
G1 X25.984 Y90.058 E13.02348
G1 X25.514 Y87.174 E13.15496
G1 X25.097 Y84.281 E13.28644
G1 X24.733 Y81.382 E13.41792
G1 X24.423 Y78.476 E13.54941
G1 X24.166 Y75.564 E13.68089
G1 X23.962 Y72.649 E13.81237
G1 X23.813 Y69.73 E13.94385
G1 X23.717 Y66.809 E14.07534
G1 X23.674 Y63.887 E14.20682
G1 X23.685 Y60.964 E14.33831
G1 X23.75 Y58.042 E14.46979
G1 X23.869 Y55.122 E14.60128
G1 X24.042 Y52.204 E14.73277
G1 X24.267 Y49.29 E14.86426
G1 X24.547 Y46.381 E14.99574
G1 X24.88 Y43.477 E15.12723
G1 X25.266 Y40.58 E15.25872
G1 X25.705 Y37.691 E15.39021
G1 X26.198 Y34.81 E15.52171
G1 X26.743 Y31.938 E15.6532
G1 X27.341 Y29.077 E15.78469
G1 X27.991 Y26.228 E15.91618
G1 X28.694 Y23.391 E16.04768
G1 X28.95 Y22.429 E16.09244
G1 X29.228 Y22.429 F9000
G1 X29.505 Y22.429
G1 F1800
G1 X28.96 Y24.524 E16.18981
G1 X28.277 Y27.361 E16.32108
G1 X27.646 Y30.21 E16.45235
G1 X27.068 Y33.07 E16.58362
G1 X26.543 Y35.94 E16.71489
G1 X26.071 Y38.819 E16.84616
G1 X25.651 Y41.707 E16.97743
G1 X25.285 Y44.601 E17.1087
G1 X24.972 Y47.502 E17.23996
G1 X24.713 Y50.409 E17.37123
G1 X24.507 Y53.319 E17.5025
G1 X24.355 Y56.233 E17.63376
G1 X24.257 Y59.149 E17.76503
G1 X24.212 Y62.066 E17.89629
G1 X24.221 Y64.984 E18.02755
G1 X24.283 Y67.901 E18.15881
G1 X24.4 Y70.816 E18.29008
G1 X24.57 Y73.729 E18.42134
G1 X24.793 Y76.638 E18.5526
G1 X25.07 Y79.542 E18.68386
G1 X25.401 Y82.441 E18.81512
G1 X25.784 Y85.333 E18.94637
G1 X26.221 Y88.218 E19.07763
G1 X26.711 Y91.094 E19.20889
G1 X27.254 Y93.961 E19.34015
G1 X27.849 Y96.817 E19.4714
G1 X28.497 Y99.661 E19.60266
G1 X29.198 Y102.494 E19.73391
G1 X29.553 Y103.824 E19.79585
G1 X29.83 Y103.824 F9000
G1 X30.108 Y103.824
G1 F1800
G1 X29.702 Y102.298 E19.8669
G1 X29.004 Y99.47 E19.99794
G1 X28.358 Y96.63 E20.12897
G1 X27.765 Y93.779 E20.26
G1 X27.225 Y90.916 E20.39104
G1 X26.737 Y88.045 E20.52207
G1 X26.303 Y85.165 E20.65311
G1 X25.922 Y82.277 E20.78414
G1 X25.594 Y79.383 E20.91518
G1 X25.319 Y76.484 E21.04622
G1 X25.098 Y73.579 E21.17725
G1 X24.93 Y70.671 E21.30829
G1 X24.817 Y67.761 E21.43933
G1 X24.756 Y64.849 E21.57037
G1 X24.75 Y61.936 E21.70141
G1 X24.797 Y59.024 E21.83245
G1 X24.898 Y56.113 E21.96349
G1 X25.053 Y53.204 E22.09454
G1 X25.261 Y50.299 E22.22558
G1 X25.523 Y47.398 E22.35662
G1 X25.838 Y44.502 E22.48767
G1 X26.206 Y41.613 E22.61871
G1 X26.628 Y38.73 E22.74976
G1 X27.103 Y35.857 E22.8808
G1 X27.63 Y32.992 E23.01185
G1 X28.211 Y30.137 E23.1429
G1 X28.844 Y27.294 E23.27395
G1 X29.529 Y24.463 E23.40499
G1 X30.061 Y22.429 E23.49956
G1 X30.339 Y22.429 F9000
G1 X30.617 Y22.429
G1 F1800
G1 X30.403 Y23.218 E23.53629
G1 X29.693 Y26.038 E23.66712
G1 X29.036 Y28.87 E23.79795
G1 X28.431 Y31.715 E23.92877
G1 X27.879 Y34.57 E24.0596
G1 X27.38 Y37.434 E24.19042
G1 X26.933 Y40.308 E24.32124
G1 X26.54 Y43.189 E24.45206
G1 X26.2 Y46.077 E24.58289
G1 X25.913 Y48.971 E24.71371
G1 X25.68 Y51.869 E24.84453
G1 X25.5 Y54.771 E24.97535
G1 X25.375 Y57.676 E25.10617
G1 X25.302 Y60.583 E25.23699
G1 X25.284 Y63.491 E25.3678
G1 X25.319 Y66.399 E25.49862
G1 X25.408 Y69.305 E25.62944
G1 X25.55 Y72.209 E25.76025
G1 X25.746 Y75.11 E25.89107
G1 X25.996 Y78.007 E26.02188
G1 X26.299 Y80.899 E26.1527
G1 X26.656 Y83.785 E26.28351
G1 X27.065 Y86.664 E26.41432
G1 X27.528 Y89.534 E26.54513
G1 X28.044 Y92.396 E26.67594
G1 X28.613 Y95.247 E26.80675
G1 X29.234 Y98.088 E26.93756
G1 X29.907 Y100.916 E27.06837
G1 X30.633 Y103.732 E27.19918
G1 X30.658 Y103.824 E27.20349
G1 X30.937 Y103.824 F9000
G1 X31.215 Y103.824
G1 F1800
G1 X30.525 Y101.172 E27.32676
G1 X29.845 Y98.35 E27.45735
G1 X29.218 Y95.516 E27.58793
G1 X28.644 Y92.671 E27.71852
G1 X28.122 Y89.816 E27.84911
G1 X27.653 Y86.951 E27.9797
G1 X27.237 Y84.078 E28.11029
G1 X26.874 Y81.198 E28.24088
G1 X26.565 Y78.312 E28.37147
G1 X26.309 Y75.421 E28.50206
G1 X26.107 Y72.525 E28.63265
G1 X25.958 Y69.626 E28.76324
G1 X25.863 Y66.725 E28.89383
G1 X25.822 Y63.822 E29.02443
G1 X25.835 Y60.919 E29.15502
G1 X25.901 Y58.017 E29.28562
G1 X26.02 Y55.117 E29.41621
G1 X26.194 Y52.219 E29.54681
G1 X26.421 Y49.325 E29.67741
G1 X26.701 Y46.436 E29.808
G1 X27.035 Y43.552 E29.9386
G1 X27.422 Y40.675 E30.0692
G1 X27.863 Y37.806 E30.1998
G1 X28.356 Y34.945 E30.3304
G1 X28.902 Y32.094 E30.461
G1 X29.501 Y29.254 E30.5916
G1 X30.153 Y26.425 E30.72221
G1 X30.856 Y23.608 E30.85281
G1 X31.174 Y22.429 E30.90773
G1 X31.45 Y22.429 F9000
G1 X31.727 Y22.429
G1 F1800
G1 X31.618 Y22.824 E30.92616
G1 X30.898 Y25.632 E31.05654
G1 X30.231 Y28.452 E31.18691
G1 X29.616 Y31.284 E31.31729
G1 X29.054 Y34.127 E31.44767
G1 X28.545 Y36.979 E31.57805
G1 X28.088 Y39.841 E31.70842
G1 X27.685 Y42.711 E31.8388
G1 X27.334 Y45.588 E31.96917
G1 X27.038 Y48.47 E32.09955
G1 X26.794 Y51.358 E32.22992
G1 X26.605 Y54.25 E32.36029
G1 X26.469 Y57.144 E32.49067
G1 X26.386 Y60.041 E32.62104
G1 X26.357 Y62.939 E32.75141
G1 X26.382 Y65.837 E32.88178
G1 X26.461 Y68.733 E33.01215
G1 X26.593 Y71.628 E33.14252
G1 X26.779 Y74.52 E33.27288
G1 X27.019 Y77.408 E33.40325
G1 X27.312 Y80.291 E33.53362
G1 X27.658 Y83.168 E33.66399
G1 X28.058 Y86.038 E33.79435
G1 X28.51 Y88.9 E33.92472
G1 X29.016 Y91.753 E34.05508
G1 X29.575 Y94.596 E34.18544
G1 X30.186 Y97.429 E34.31581
G1 X30.849 Y100.25 E34.44617
G1 X31.565 Y103.057 E34.57653
G1 X31.775 Y103.824 E34.61229
G1 X32.051 Y103.824 F9000
G1 X32.327 Y103.824
G1 F1800
G1 X32.31 Y103.763 E34.61512
G1 X31.58 Y100.964 E34.74526
G1 X30.902 Y98.152 E34.87539
G1 X30.276 Y95.328 E35.00553
G1 X29.703 Y92.493 E35.13567
G1 X29.183 Y89.647 E35.26581
G1 X28.715 Y86.793 E35.39595
G1 X28.301 Y83.93 E35.52609
G1 X27.94 Y81.06 E35.65624
G1 X27.632 Y78.183 E35.78638
G1 X27.377 Y75.302 E35.91652
G1 X27.177 Y72.416 E36.04667
G1 X27.029 Y69.527 E36.17681
G1 X26.936 Y66.635 E36.30696
G1 X26.896 Y63.743 E36.4371
G1 X26.91 Y60.85 E36.56725
G1 X26.977 Y57.958 E36.6974
G1 X27.098 Y55.068 E36.82754
G1 X27.273 Y52.18 E36.95769
G1 X27.502 Y49.296 E37.08784
G1 X27.784 Y46.417 E37.21799
G1 X28.119 Y43.543 E37.34814
G1 X28.508 Y40.677 E37.47829
G1 X28.949 Y37.818 E37.60844
G1 X29.444 Y34.967 E37.7386
G1 X29.992 Y32.127 E37.86875
G1 X30.592 Y29.296 E37.9989
G1 X31.245 Y26.478 E38.12906
G1 X31.95 Y23.672 E38.25921
G1 X32.286 Y22.429 E38.31714
G1 X32.564 Y22.429 F9000
G1 X32.842 Y22.429
G1 F1800
G1 X32.589 Y23.354 E38.36025
G1 X31.876 Y26.153 E38.49018
G1 X31.217 Y28.964 E38.62011
G1 X30.609 Y31.788 E38.75004
G1 X30.054 Y34.622 E38.87997
G1 X29.552 Y37.466 E39.0099
G1 X29.103 Y40.319 E39.13983
G1 X28.707 Y43.179 E39.26975
G1 X28.364 Y46.047 E39.39968
G1 X28.075 Y48.92 E39.5296
G1 X27.839 Y51.799 E39.65953
G1 X27.657 Y54.681 E39.78945
G1 X27.528 Y57.566 E39.91938
G1 X27.453 Y60.453 E40.0493
G1 X27.432 Y63.341 E40.17922
G1 X27.464 Y66.228 E40.30914
G1 X27.55 Y69.115 E40.43906
G1 X27.69 Y71.999 E40.56898
G1 X27.883 Y74.881 E40.6989
G1 X28.13 Y77.758 E40.82882
G1 X28.431 Y80.63 E40.95874
G1 X28.785 Y83.496 E41.08866
G1 X29.192 Y86.355 E41.21857
G1 X29.652 Y89.206 E41.34849
G1 X30.165 Y92.048 E41.47841
G1 X30.731 Y94.879 E41.60832
G1 X31.349 Y97.7 E41.73823
G1 X32.02 Y100.509 E41.86815
G1 X32.742 Y103.304 E41.99806
G1 X32.887 Y103.824 E42.02232
G1 X33.166 Y103.824 F9000
G1 X33.445 Y103.824
G1 F1800
G1 X32.872 Y101.687 E42.12185
G1 X32.178 Y98.889 E42.25154
G1 X31.536 Y96.079 E42.38123
G1 X30.947 Y93.257 E42.51092
G1 X30.411 Y90.425 E42.64061
G1 X29.927 Y87.583 E42.7703
G1 X29.496 Y84.732 E42.89999
G1 X29.119 Y81.874 E43.02968
