;FLAVOR:Marlin
;TIME:8032
;Filament used: 8.4227m
;Layer height: 0.28
;MINX:13.379
;MINY:17.557
;MINZ:0.28
;MAXX:359.595
;MAXY:123.775
;MAXZ:17.92
;Generated with Cura_SteamEngine 4.11.0
M140 S50
M105
M190 S50
M104 S200
M105
M109 S200
M82 ;absolute extrusion mode
M201 X500.00 Y500.00 Z100.00 E5000.00 ;Setup machine max acceleration
M203 X500.00 Y500.00 Z10.00 E50.00 ;Setup machine max feedrate
M204 P500.00 R1000.00 T500.00 ;Setup Print/Retract/Travel acceleration
M205 X8.00 Y8.00 Z0.40 E5.00 ;Setup Jerk
M220 S100 ;Reset Feedrate
M221 S100 ;Reset Flowrate

G28 ;Home

G92 E0 ;Reset Extruder
G1 Z2.0 F3000 ;Move Z Axis up
G1 X10.1 Y20 Z0.28 F5000.0 ;Move to start position
G1 X10.1 Y200.0 Z0.28 F1500.0 E15 ;Draw the first line
G1 X10.4 Y200.0 Z0.28 F5000.0 ;Move to side a little
G1 X10.4 Y20 Z0.28 F1500.0 E30 ;Draw the second line
G92 E0 ;Reset Extruder
G1 Z2.0 F3000 ;Move Z Axis up

G92 E0
G92 E0
G1 F2700 E-5
;LAYER_COUNT:64
;LAYER:0
M107
G0 F6000 X17.308 Y20.434 Z0.28
;TYPE:SKIRT
G1 F2700 E0
G1 F1200 X18.033 Y19.839 E0.04367
G1 X18.806 Y19.308 E0.08734
G1 X19.622 Y18.845 E0.13103
G1 X20.474 Y18.453 E0.1747
G1 X21.682 Y18.038 E0.23417
G1 X21.911 Y17.974 E0.24525
G1 X22.824 Y17.76 E0.28891
G1 X23.753 Y17.625 E0.33262
G1 X24.432 Y17.577 E0.36432
G1 X24.607 Y17.57 E0.37248
G1 X24.932 Y17.562 E0.38761
G1 X25.431 Y17.557 E0.41085
G1 X347.389 Y17.557 E15.40256
G1 X348.269 Y17.569 E15.44354
G1 X349.206 Y17.624 E15.48725
G1 X350.134 Y17.758 E15.53091
G1 X351.047 Y17.97 E15.57455
G1 X351.702 Y18.175 E15.60651
G1 X351.976 Y18.27 E15.62001
G1 X352.849 Y18.615 E15.66372
G1 X353.688 Y19.032 E15.70735
G1 X354.489 Y19.52 E15.75103
G1 X355.246 Y20.074 E15.79471
G1 X355.953 Y20.691 E15.8384
G1 X356.706 Y21.482 E15.88925
G1 X356.868 Y21.67 E15.90081
G1 X357.449 Y22.406 E15.94447
G1 X357.966 Y23.189 E15.98816
G1 X358.414 Y24.013 E16.03184
G1 X358.79 Y24.872 E16.0755
G1 X359.2 Y26.158 E16.13835
G1 X359.25 Y26.356 E16.14786
G1 X359.441 Y27.274 E16.19152
G1 X359.553 Y28.205 E16.23518
G1 X359.579 Y28.695 E16.25803
G1 X359.589 Y29.006 E16.27252
G1 X359.595 Y29.36 E16.28901
G1 X359.595 Y111.694 E20.12282
G1 X359.584 Y112.439 E20.15752
G1 X359.53 Y113.376 E20.20122
G1 X359.397 Y114.304 E20.24487
G1 X359.122 Y115.434 E20.29903
G1 X359.048 Y115.681 E20.31103
G1 X358.741 Y116.567 E20.3547
G1 X358.359 Y117.424 E20.39839
G1 X357.906 Y118.245 E20.44205
G1 X357.385 Y119.024 E20.48569
G1 X356.626 Y119.95 E20.54144
G1 X356.486 Y120.103 E20.5511
G1 X355.824 Y120.767 E20.59476
G1 X355.108 Y121.373 E20.63843
G1 X354.343 Y121.915 E20.68209
G1 X353.346 Y122.488 E20.73564
G1 X353.275 Y122.524 E20.73934
G1 X352.421 Y122.912 E20.78302
G1 X351.537 Y123.226 E20.8267
G1 X350.956 Y123.388 E20.85479
G1 X350.743 Y123.441 E20.86501
G1 X349.824 Y123.628 E20.90868
G1 X348.434 Y123.761 E20.9737
G1 X348.125 Y123.768 E20.98809
G1 X347.496 Y123.775 E21.01738
G1 X25.427 Y123.774 E36.01426
G1 X24.787 Y123.765 E36.04407
G1 X23.851 Y123.712 E36.08772
G1 X22.923 Y123.579 E36.13137
G1 X22.41 Y123.471 E36.15578
G1 X22.114 Y123.401 E36.16995
G1 X21.212 Y123.146 E36.21359
G1 X20.334 Y122.816 E36.25727
G1 X19.488 Y122.412 E36.30092
G1 X18.679 Y121.937 E36.34461
G1 X17.913 Y121.395 E36.3883
G1 X17.244 Y120.833 E36.42899
G1 X17.089 Y120.692 E36.43874
G1 X16.423 Y120.032 E36.4824
G1 X15.815 Y119.317 E36.52611
G1 X15.271 Y118.554 E36.56974
G1 X14.793 Y117.747 E36.61342
G1 X14.499 Y117.155 E36.64419
G1 X14.412 Y116.966 E36.65388
G1 X14.056 Y116.098 E36.69757
G1 X13.666 Y114.752 E36.76282
G1 X13.658 Y114.716 E36.76454
G1 X13.494 Y113.793 E36.80819
G1 X13.398 Y112.52 E36.86763
G1 X13.379 Y111.345 E36.92235
G1 X13.379 Y29.607 E40.72842
G1 X13.389 Y28.911 E40.76083
G1 X13.443 Y27.975 E40.80449
G1 X13.576 Y27.046 E40.84819
G1 X13.787 Y26.133 E40.89182
G1 X13.98 Y25.508 E40.92228
G1 X14.083 Y25.207 E40.93709
G1 X14.425 Y24.333 E40.98079
G1 X14.839 Y23.492 E41.02444
G1 X15.324 Y22.689 E41.06812
G1 X15.875 Y21.93 E41.1118
G1 X16.489 Y21.221 E41.15547
G1 X17.156 Y20.57 E41.19887
G1 X17.308 Y20.434 E41.20837
G0 F6000 X17.575 Y20.732
G1 F1200 X18.287 Y20.149 E41.25122
G1 X19.047 Y19.629 E41.2941
G1 X19.849 Y19.178 E41.33694
G1 X20.688 Y18.798 E41.37983
G1 X21.79 Y18.423 E41.43403
G1 X22.019 Y18.359 E41.4451
G1 X22.915 Y18.15 E41.48794
G1 X23.827 Y18.02 E41.53084
G1 X24.448 Y17.976 E41.55983
G1 X24.623 Y17.969 E41.56798
G1 X24.937 Y17.962 E41.58261
G1 X25.431 Y17.957 E41.60561
G1 X347.389 Y17.957 E56.59733
G1 X348.263 Y17.969 E56.63803
G1 X349.182 Y18.023 E56.68089
G1 X350.093 Y18.157 E56.72377
G1 X350.989 Y18.37 E56.76665
G1 X351.571 Y18.553 E56.79506
G1 X351.845 Y18.648 E56.80857
G1 X352.701 Y18.987 E56.85144
G1 X353.525 Y19.399 E56.89434
G1 X354.309 Y19.881 E56.93719
G1 X355.049 Y20.429 E56.98007
G1 X355.738 Y21.04 E57.02295
G1 X356.403 Y21.744 E57.06804
G1 X356.565 Y21.932 E57.0796
G1 X357.135 Y22.654 E57.12243
G1 X357.64 Y23.424 E57.16531
G1 X358.077 Y24.235 E57.2082
G1 X358.442 Y25.08 E57.25106
G1 X358.812 Y26.256 E57.30847
G1 X358.862 Y26.454 E57.31798
G1 X359.049 Y27.355 E57.36083
G1 X359.18 Y28.708 E57.42412
G1 X359.19 Y29.019 E57.43861
G1 X359.195 Y29.36 E57.45449
G1 X359.195 Y111.688 E61.28803
G1 X359.184 Y112.433 E61.32272
G1 X359.13 Y113.353 E61.36564
G1 X358.997 Y114.264 E61.40851
G1 X358.739 Y115.319 E61.45908
G1 X358.665 Y115.566 E61.47109
G1 X358.363 Y116.436 E61.51397
G1 X357.986 Y117.276 E61.55684
G1 X357.538 Y118.08 E61.5997
G1 X357.022 Y118.842 E61.64255
G1 X356.331 Y119.68 E61.69313
G1 X356.191 Y119.833 E61.70278
G1 X355.541 Y120.484 E61.74562
G1 X354.836 Y121.077 E61.78852
G1 X354.083 Y121.606 E61.83137
G1 X353.165 Y122.131 E61.88061
G1 X353.094 Y122.167 E61.88431
G1 X352.255 Y122.547 E61.9272
G1 X351.387 Y122.854 E61.97007
G1 X350.86 Y122.999 E61.99552
G1 X350.647 Y123.052 E62.00575
G1 X349.744 Y123.236 E62.04866
G1 X348.422 Y123.361 E62.11049
G1 X348.12 Y123.368 E62.12456
G1 X347.496 Y123.375 E62.15361
G1 X25.433 Y123.374 E77.15022
G1 X24.793 Y123.365 E77.18002
G1 X23.874 Y123.312 E77.22288
G1 X22.963 Y123.18 E77.26575
G1 X22.503 Y123.081 E77.28766
G1 X22.207 Y123.011 E77.30182
G1 X21.321 Y122.761 E77.34469
G1 X20.46 Y122.434 E77.38757
G1 X19.631 Y122.034 E77.43043
G1 X18.839 Y121.564 E77.47332
G1 X18.092 Y121.027 E77.51615
G1 X17.513 Y120.537 E77.55147
G1 X17.358 Y120.396 E77.56123
G1 X16.705 Y119.748 E77.60407
G1 X16.11 Y119.045 E77.64695
G1 X15.578 Y118.293 E77.68985
G1 X15.114 Y117.498 E77.73271
G1 X14.862 Y116.987 E77.75924
G1 X14.775 Y116.798 E77.76893
G1 X14.427 Y115.946 E77.81178
G1 X14.056 Y114.665 E77.87388
G1 X14.048 Y114.629 E77.8756
G1 X13.888 Y113.723 E77.91844
G1 X13.798 Y112.513 E77.97494
G1 X13.779 Y111.345 E78.02933
G1 X13.779 Y29.613 E81.83512
G1 X13.789 Y28.917 E81.86753
G1 X13.842 Y27.998 E81.91039
G1 X13.975 Y27.087 E81.95326
G1 X14.186 Y26.19 E81.99617
G1 X14.359 Y25.637 E82.02315
G1 X14.462 Y25.336 E82.03796
G1 X14.798 Y24.479 E82.08083
G1 X15.206 Y23.654 E82.12368
G1 X15.685 Y22.868 E82.16654
G1 X16.23 Y22.126 E82.20941
G1 X16.838 Y21.434 E82.25231
G1 X17.423 Y20.868 E82.29021
G1 X17.575 Y20.732 E82.29971
G0 F6000 X17.842 Y21.031
G1 F1200 X18.541 Y20.459 E82.34176
G1 X19.288 Y19.951 E82.38383
G1 X20.076 Y19.511 E82.42585
G1 X20.901 Y19.143 E82.46792
G1 X21.898 Y18.808 E82.51689
G1 X22.127 Y18.744 E82.52796
G1 X23.006 Y18.54 E82.56998
G1 X23.901 Y18.414 E82.61207
G1 X24.464 Y18.376 E82.63834
G1 X24.639 Y18.369 E82.6465
G1 X24.941 Y18.362 E82.66056
G1 X25.431 Y18.357 E82.68338
G1 X347.389 Y18.357 E97.67509
G1 X348.257 Y18.369 E97.71552
G1 X349.159 Y18.423 E97.75759
G1 X350.052 Y18.557 E97.79964
G1 X350.93 Y18.769 E97.8417
G1 X351.44 Y18.931 E97.86661
G1 X351.714 Y19.026 E97.88012
G1 X352.554 Y19.359 E97.92219
G1 X353.36 Y19.765 E97.96422
G1 X354.128 Y20.241 E98.00629
G1 X354.85 Y20.783 E98.04833
G1 X355.522 Y21.387 E98.0904
G1 X356.1 Y22.005 E98.1298
G1 X356.262 Y22.193 E98.14136
G1 X356.821 Y22.902 E98.1834
G1 X357.314 Y23.658 E98.22543
G1 X357.739 Y24.455 E98.26748
G1 X358.092 Y25.287 E98.30957
G1 X358.425 Y26.354 E98.36162
G1 X358.475 Y26.552 E98.37112
G1 X358.657 Y27.436 E98.41315
G1 X358.78 Y28.721 E98.47326
G1 X358.79 Y29.032 E98.48775
G1 X358.795 Y29.36 E98.50302
G1 X358.795 Y111.683 E102.33633
G1 X358.784 Y112.428 E102.37102
G1 X358.731 Y113.329 E102.41305
G1 X358.598 Y114.222 E102.45509
G1 X358.356 Y115.204 E102.50218
G1 X358.282 Y115.451 E102.51419
G1 X357.985 Y116.304 E102.55625
G1 X357.613 Y117.127 E102.5983
G1 X357.17 Y117.914 E102.64035
G1 X356.66 Y118.659 E102.68239
G1 X356.036 Y119.41 E102.72786
G1 X355.896 Y119.563 E102.73752
G1 X355.258 Y120.201 E102.77953
G1 X354.565 Y120.781 E102.82161
G1 X353.824 Y121.297 E102.86366
G1 X352.984 Y121.774 E102.90864
G1 X352.913 Y121.81 E102.91234
G1 X352.09 Y122.183 E102.95442
G1 X351.238 Y122.481 E102.99645
G1 X350.763 Y122.611 E103.01938
G1 X350.55 Y122.664 E103.0296
G1 X349.665 Y122.843 E103.07164
G1 X348.409 Y122.961 E103.13038
G1 X348.115 Y122.968 E103.14408
G1 X347.496 Y122.975 E103.1729
G1 X25.439 Y122.974 E118.16923
G1 X24.799 Y122.965 E118.19903
G1 X23.897 Y122.912 E118.2411
G1 X22.595 Y122.692 E118.30259
G1 X22.299 Y122.622 E118.31675
G1 X21.43 Y122.376 E118.35881
G1 X20.586 Y122.053 E118.40089
G1 X19.774 Y121.657 E118.44295
G1 X19.001 Y121.191 E118.48498
G1 X18.272 Y120.659 E118.52701
G1 X17.782 Y120.241 E118.557
G1 X17.627 Y120.1 E118.56675
G1 X16.987 Y119.463 E118.6088
G1 X16.405 Y118.773 E118.65083
G1 X15.887 Y118.033 E118.69289
G1 X15.436 Y117.251 E118.73493
G1 X15.226 Y116.82 E118.75725
G1 X15.139 Y116.631 E118.76694
G1 X14.798 Y115.795 E118.80898
G1 X14.447 Y114.579 E118.86792
G1 X14.439 Y114.543 E118.86963
G1 X14.282 Y113.653 E118.91172
G1 X14.198 Y112.506 E118.96527
G1 X14.179 Y111.345 E119.01934
G1 X14.179 Y29.618 E122.82489
G1 X14.189 Y28.922 E122.8573
G1 X14.242 Y28.021 E122.89933
G1 X14.374 Y27.128 E122.94136
G1 X14.585 Y26.249 E122.98345
G1 X14.737 Y25.767 E123.00699
G1 X14.84 Y25.466 E123.0218
G1 X15.17 Y24.625 E123.06387
G1 X15.573 Y23.817 E123.10591
G1 X16.046 Y23.047 E123.14799
G1 X16.585 Y22.323 E123.19002
G1 X17.186 Y21.649 E123.23207
G1 X17.69 Y21.167 E123.26454
G1 X17.842 Y21.031 E123.27404
G1 F2700 E118.27404
;MESH:Front face.stl
G0 F6000 X27.74 Y31.919
G0 X26.687 Y30.866
G0 X26.659 Y110.494
G0 X346.487 Y110.666
;TYPE:WALL-INNER
G1 F2700 E123.27404
G1 F1200 X346.487 Y30.666 E126.99917
G1 X26.487 Y30.666 E141.89971
G1 X26.487 Y110.666 E145.62485
G1 X346.487 Y110.666 E160.52539
G0 F6000 X346.087 Y110.266
;TYPE:WALL-OUTER
G1 F1200 X346.087 Y31.066 E164.21327
G1 X26.887 Y31.066 E179.07656
G1 X26.887 Y110.266 E182.76445
G1 X346.087 Y110.266 E197.62774
G1 F2700 E192.62774
G0 F6000 X346.387 Y110.266
G0 X346.683 Y110.862
G0 X346.683 Y111.965
G0 X347.996 Y112.175
;TYPE:WALL-INNER
G1 F2700 E197.62774
G1 F1200 X24.979 Y112.175 E212.66876
G1 X24.978 Y29.356 E216.52516
G1 X24.978 Y29.157 E216.53443
G1 X25.177 Y29.157 E216.54042
G1 X347.996 Y29.157 E231.57223
G1 X347.996 Y112.175 E235.43789
G0 F6000 X348.335 Y112.448
;TYPE:WALL-OUTER
G1 F1200 X348.194 Y112.552 E235.44605
G1 X348.079 Y112.575 E235.45151
G1 X24.895 Y112.575 E250.50031
G1 X24.702 Y112.505 E250.50987
G1 X24.597 Y112.353 E250.51847
G1 X24.579 Y112.253 E250.52321
G1 X24.578 Y29.075 E254.39632
G1 X24.639 Y28.884 E254.40566
G1 X24.779 Y28.78 E254.41378
G1 X24.896 Y28.757 E254.41933
G1 X348.078 Y28.757 E269.46804
G1 X348.269 Y28.818 E269.47737
G1 X348.373 Y28.956 E269.48542
G1 X348.396 Y29.079 E269.49125
G1 X348.396 Y112.253 E273.36418
G1 X348.335 Y112.448 E273.37369
G0 F6000 X347.977 Y112.135
G0 X347.606 Y111.785
;TYPE:SKIN
G1 F1200 X25.369 Y111.785 E288.3784
G1 X25.368 Y29.547 E292.20774
G1 X347.606 Y29.547 E307.21249
G1 X347.606 Y111.785 E311.04184
G0 F6000 X347.886 Y111.785
G0 X347.786 Y110.806
G0 X346.677 Y110.806
G0 X346.877 Y111.056
G1 F1200 X346.877 Y30.276 E314.80329
G1 X26.097 Y30.276 E329.74015
G1 X26.097 Y111.056 E333.50161
G1 X346.877 Y111.056 E348.43847
G1 F2700 E343.43847
G0 F6000 X346.627 Y110.806
G0 X346.627 Y30.526
G1 F2700 E348.43847
G0 F6000 X347.236 Y30.452
G1 F1200 X347.236 Y29.916 E348.46343
G0 F6000 X346.699 Y29.915
G1 F1200 X346.133 Y29.915 E348.48978
G0 F6000 X346.125 Y29.907
G1 F1200 X345.559 Y29.907 E348.51614
G0 F6000 X345.568 Y29.915
G1 F1200 X345.002 Y29.915 E348.54249
G0 F6000 X344.993 Y29.907
G1 F1200 X344.428 Y29.907 E348.5688
G0 F6000 X344.436 Y29.915
G1 F1200 X343.87 Y29.915 E348.59516
G0 F6000 X343.862 Y29.907
G1 F1200 X343.296 Y29.907 E348.62151
G0 F6000 X343.305 Y29.915
G1 F1200 X342.739 Y29.915 E348.64787
G0 F6000 X342.731 Y29.907
G1 F1200 X342.165 Y29.907 E348.67423
G0 F6000 X342.173 Y29.915
G1 F1200 X341.608 Y29.915 E348.70053
G0 F6000 X341.599 Y29.907
G1 F1200 X341.034 Y29.907 E348.72684
G0 F6000 X341.042 Y29.915
G1 F1200 X340.476 Y29.915 E348.7532
G0 F6000 X340.468 Y29.907
G1 F1200 X339.902 Y29.907 E348.77955
G0 F6000 X339.911 Y29.915
G1 F1200 X339.345 Y29.915 E348.80591
G0 F6000 X339.337 Y29.907
G1 F1200 X338.771 Y29.907 E348.83226
G0 F6000 X338.779 Y29.915
G1 F1200 X338.214 Y29.915 E348.85857
G0 F6000 X338.205 Y29.907
G1 F1200 X337.639 Y29.907 E348.88493
G0 F6000 X337.648 Y29.915
G1 F1200 X337.082 Y29.915 E348.91128
G0 F6000 X337.074 Y29.907
G1 F1200 X336.508 Y29.907 E348.93764
G0 F6000 X336.517 Y29.915
G1 F1200 X335.951 Y29.915 E348.96399
G0 F6000 X335.942 Y29.907
G1 F1200 X335.377 Y29.907 E348.9903
G0 F6000 X335.385 Y29.915
G1 F1200 X334.82 Y29.915 E349.01661
G0 F6000 X334.811 Y29.907
G1 F1200 X334.245 Y29.907 E349.04297
G0 F6000 X334.254 Y29.915
G1 F1200 X333.688 Y29.915 E349.06932
G0 F6000 X333.68 Y29.907
G1 F1200 X333.114 Y29.907 E349.09568
G0 F6000 X333.122 Y29.915
G1 F1200 X332.557 Y29.915 E349.12199
G0 F6000 X332.548 Y29.907
G1 F1200 X331.983 Y29.907 E349.1483
G0 F6000 X331.991 Y29.915
G1 F1200 X331.425 Y29.915 E349.17465
G0 F6000 X331.417 Y29.907
G1 F1200 X330.851 Y29.907 E349.20101
G0 F6000 X330.86 Y29.915
G1 F1200 X330.294 Y29.915 E349.22736
G0 F6000 X330.286 Y29.907
G1 F1200 X329.72 Y29.907 E349.25372
G0 F6000 X329.728 Y29.915
G1 F1200 X329.163 Y29.915 E349.28003
G0 F6000 X329.154 Y29.907
G1 F1200 X328.588 Y29.907 E349.30638
G0 F6000 X328.597 Y29.915
G1 F1200 X328.031 Y29.915 E349.33274
G0 F6000 X328.023 Y29.907
G1 F1200 X327.457 Y29.907 E349.35909
G0 F6000 X327.466 Y29.915
G1 F1200 X326.9 Y29.915 E349.38545
G0 F6000 X326.891 Y29.907
G1 F1200 X326.326 Y29.907 E349.41176
G0 F6000 X326.334 Y29.915
G1 F1200 X325.769 Y29.915 E349.43806
G0 F6000 X325.76 Y29.907
G1 F1200 X325.194 Y29.907 E349.46442
G0 F6000 X325.203 Y29.915
G1 F1200 X324.637 Y29.915 E349.49077
G0 F6000 X324.629 Y29.907
G1 F1200 X324.063 Y29.907 E349.51713
G0 F6000 X324.071 Y29.915
G1 F1200 X323.506 Y29.915 E349.54344
G0 F6000 X323.497 Y29.907
G1 F1200 X322.932 Y29.907 E349.56975
G0 F6000 X322.94 Y29.915
G1 F1200 X322.374 Y29.915 E349.5961
G0 F6000 X322.366 Y29.907
G1 F1200 X321.8 Y29.907 E349.62246
G0 F6000 X321.809 Y29.915
G1 F1200 X321.243 Y29.915 E349.64881
G0 F6000 X321.235 Y29.907
G1 F1200 X320.669 Y29.907 E349.67517
G0 F6000 X320.677 Y29.915
G1 F1200 X320.112 Y29.915 E349.70148
G0 F6000 X320.103 Y29.907
G1 F1200 X319.538 Y29.907 E349.72779
G0 F6000 X319.546 Y29.915
G1 F1200 X318.98 Y29.915 E349.75414
G0 F6000 X318.972 Y29.907
G1 F1200 X318.406 Y29.907 E349.7805
G0 F6000 X318.415 Y29.915
G1 F1200 X317.849 Y29.915 E349.80685
G0 F6000 X317.84 Y29.907
G1 F1200 X317.275 Y29.907 E349.83316
G0 F6000 X317.283 Y29.915
G1 F1200 X316.718 Y29.915 E349.85947
G0 F6000 X316.709 Y29.907
G1 F1200 X316.143 Y29.907 E349.88583
G0 F6000 X316.152 Y29.915
G1 F1200 X315.586 Y29.915 E349.91218
G0 F6000 X315.578 Y29.907
G1 F1200 X315.012 Y29.907 E349.93854
G0 F6000 X315.021 Y29.915
G1 F1200 X314.455 Y29.915 E349.96489
G0 F6000 X314.446 Y29.907
G1 F1200 X313.881 Y29.907 E349.9912
G0 F6000 X313.889 Y29.915
G1 F1200 X313.323 Y29.915 E350.01756
G0 F6000 X313.315 Y29.907
G1 F1200 X312.749 Y29.907 E350.04391
G0 F6000 X312.758 Y29.915
G1 F1200 X312.192 Y29.915 E350.07027
G0 F6000 X312.184 Y29.907
G1 F1200 X311.618 Y29.907 E350.09662
G0 F6000 X311.626 Y29.915
G1 F1200 X311.061 Y29.915 E350.12293
G0 F6000 X311.052 Y29.907
G1 F1200 X310.487 Y29.907 E350.14924
G0 F6000 X310.495 Y29.915
