;FLAVOR:Marlin
;TIME:22366
;Filament used: 17.9564m
;Layer height: 0.28
;MINX:11.919
;MINY:14.39
;MINZ:0.28
;MAXX:355.919
;MAXY:118.39
;MAXZ:10.08
;Generated with Cura_SteamEngine 4.11.0
M140 S50
M105
M190 S50
M104 S200
M105
M109 S200
M82 ;absolute extrusion mode
M201 X500.00 Y500.00 Z100.00 E5000.00 ;Setup machine max acceleration
M203 X500.00 Y500.00 Z10.00 E50.00 ;Setup machine max feedrate
M204 P500.00 R1000.00 T500.00 ;Setup Print/Retract/Travel acceleration
M205 X8.00 Y8.00 Z0.40 E5.00 ;Setup Jerk
M220 S100 ;Reset Feedrate
M221 S100 ;Reset Flowrate

G28 ;Home

G92 E0 ;Reset Extruder
G1 Z2.0 F3000 ;Move Z Axis up
G1 X10.1 Y20 Z0.28 F5000.0 ;Move to start position
G1 X10.1 Y200.0 Z0.28 F1500.0 E15 ;Draw the first line
G1 X10.4 Y200.0 Z0.28 F5000.0 ;Move to side a little
G1 X10.4 Y20 Z0.28 F1500.0 E30 ;Draw the second line
G92 E0 ;Reset Extruder
G1 Z2.0 F3000 ;Move Z Axis up

G92 E0
G92 E0
G1 F2700 E-5
;LAYER_COUNT:36
;LAYER:0
M107
G0 F6000 X15.805 Y17.017 Z0.28
;TYPE:SKIRT
G1 F2700 E0
G1 F1200 X16.545 Y16.441 E0.04367
G1 X17.331 Y15.929 E0.08735
G1 X18.158 Y15.487 E0.13101
G1 X19.02 Y15.117 E0.17469
G1 X19.91 Y14.821 E0.21836
G1 X20.822 Y14.603 E0.26203
G1 X21.749 Y14.462 E0.30569
G1 X22.62 Y14.403 E0.34634
G1 X22.941 Y14.394 E0.36129
G1 X23.249 Y14.39 E0.37563
G1 X344.212 Y14.39 E15.32101
G1 X345.068 Y14.401 E15.36088
G1 X346.004 Y14.455 E15.40453
G1 X346.932 Y14.587 E15.44818
G1 X347.846 Y14.799 E15.49187
G1 X348.738 Y15.088 E15.53553
G1 X349.603 Y15.451 E15.57921
G1 X350.433 Y15.887 E15.62287
G1 X351.224 Y16.392 E15.66657
G1 X351.968 Y16.963 E15.71024
G1 X352.661 Y17.595 E15.75391
G1 X353.298 Y18.283 E15.79757
G1 X353.873 Y19.024 E15.84124
G1 X354.384 Y19.81 E15.8849
G1 X354.826 Y20.638 E15.9286
G1 X355.195 Y21.5 E15.97226
G1 X355.49 Y22.39 E16.01592
G1 X355.708 Y23.302 E16.05959
G1 X355.848 Y24.23 E16.10329
G1 X355.906 Y25.091 E16.14347
G1 X355.915 Y25.411 E16.15837
G1 X355.919 Y25.72 E16.17276
G1 X355.918 Y106.79 E19.94772
G1 X355.909 Y107.517 E19.98158
G1 X355.858 Y108.454 E20.02527
G1 X355.726 Y109.382 E20.06892
G1 X355.517 Y110.296 E20.11258
G1 X355.23 Y111.189 E20.15625
G1 X354.868 Y112.055 E20.19996
G1 X354.434 Y112.886 E20.24361
G1 X353.93 Y113.677 E20.28729
G1 X353.361 Y114.422 E20.33094
G1 X352.73 Y115.117 E20.37465
G1 X352.043 Y115.755 E20.41831
G1 X351.304 Y116.332 E20.46196
G1 X350.518 Y116.844 E20.50564
G1 X349.692 Y117.287 E20.54929
G1 X348.83 Y117.659 E20.593
G1 X347.941 Y117.955 E20.63663
G1 X347.029 Y118.175 E20.68032
G1 X346.102 Y118.316 E20.72398
G1 X345.218 Y118.377 E20.76524
G1 X344.897 Y118.386 E20.78019
G1 X344.589 Y118.39 E20.79454
G1 X23.484 Y118.389 E35.74653
G1 X22.786 Y118.38 E35.77904
G1 X21.85 Y118.328 E35.82269
G1 X20.921 Y118.196 E35.86638
G1 X20.007 Y117.986 E35.91005
G1 X19.114 Y117.699 E35.95372
G1 X18.249 Y117.336 E35.9974
G1 X17.418 Y116.902 E36.04106
G1 X16.627 Y116.398 E36.08473
G1 X15.882 Y115.828 E36.12841
G1 X15.188 Y115.197 E36.17209
G1 X14.551 Y114.51 E36.21571
G1 X13.974 Y113.77 E36.25941
G1 X13.462 Y112.984 E36.30309
G1 X13.019 Y112.157 E36.34677
G1 X12.648 Y111.296 E36.39043
G1 X12.352 Y110.406 E36.4341
G1 X12.133 Y109.494 E36.47778
G1 X11.992 Y108.567 E36.52144
G1 X11.932 Y107.678 E36.56293
G1 X11.923 Y107.345 E36.57844
G1 X11.919 Y107.048 E36.59227
G1 X11.92 Y25.915 E40.37016
G1 X11.929 Y25.25 E40.40113
G1 X11.982 Y24.314 E40.44478
G1 X12.114 Y23.385 E40.48848
G1 X12.325 Y22.471 E40.53215
G1 X12.613 Y21.579 E40.5758
G1 X12.976 Y20.714 E40.61948
G1 X13.411 Y19.883 E40.66316
G1 X13.915 Y19.093 E40.70679
G1 X14.485 Y18.348 E40.75047
G1 X15.117 Y17.654 E40.79418
G1 X15.805 Y17.017 E40.83784
G0 F6000 X16.193 Y17.213
G1 F1200 X16.929 Y16.66 E40.8807
G1 X17.71 Y16.172 E40.92359
G1 X18.53 Y15.754 E40.96644
G1 X19.384 Y15.409 E41.00933
G1 X20.264 Y15.139 E41.05219
G1 X21.164 Y14.947 E41.09505
G1 X22.078 Y14.833 E41.13793
G1 X22.631 Y14.803 E41.16372
G1 X22.952 Y14.794 E41.17868
G1 X23.249 Y14.79 E41.19251
G1 X344.212 Y14.79 E56.13789
G1 X345.062 Y14.801 E56.17747
G1 X345.981 Y14.854 E56.22033
G1 X346.892 Y14.987 E56.2632
G1 X347.788 Y15.198 E56.30607
G1 X348.662 Y15.486 E56.34892
G1 X349.509 Y15.849 E56.39183
G1 X350.32 Y16.284 E56.43468
G1 X351.09 Y16.788 E56.47753
G1 X351.814 Y17.357 E56.52041
G1 X352.486 Y17.987 E56.5633
G1 X353.101 Y18.672 E56.60617
G1 X353.654 Y19.408 E56.64903
G1 X354.141 Y20.189 E56.69189
G1 X354.558 Y21.01 E56.73477
G1 X354.903 Y21.864 E56.77766
G1 X355.172 Y22.744 E56.8205
G1 X355.364 Y23.645 E56.8634
G1 X355.477 Y24.558 E56.90624
G1 X355.506 Y25.102 E56.93161
G1 X355.515 Y25.422 E56.94651
G1 X355.519 Y25.72 E56.96039
G1 X355.518 Y106.785 E60.73512
G1 X355.509 Y107.512 E60.76897
G1 X355.458 Y108.431 E60.81183
G1 X355.327 Y109.343 E60.85473
G1 X355.117 Y110.239 E60.89758
G1 X354.831 Y111.114 E60.94045
G1 X354.47 Y111.961 E60.98332
G1 X354.036 Y112.773 E61.02619
G1 X353.534 Y113.545 E61.06907
G1 X352.966 Y114.27 E61.11196
G1 X352.338 Y114.943 E61.15482
G1 X351.654 Y115.559 E61.19768
G1 X350.919 Y116.113 E61.24054
G1 X350.139 Y116.602 E61.28341
G1 X349.319 Y117.021 E61.32629
G1 X348.466 Y117.367 E61.36915
G1 X347.586 Y117.638 E61.41202
G1 X346.686 Y117.831 E61.45488
G1 X345.772 Y117.946 E61.49778
G1 X345.207 Y117.977 E61.52413
G1 X344.886 Y117.986 E61.53908
G1 X344.589 Y117.99 E61.55291
G1 X23.489 Y117.989 E76.50467
G1 X22.791 Y117.98 E76.53718
G1 X21.872 Y117.928 E76.58004
G1 X20.961 Y117.797 E76.62289
G1 X20.065 Y117.587 E76.66575
G1 X19.19 Y117.3 E76.70863
G1 X18.343 Y116.938 E76.75152
G1 X17.531 Y116.504 E76.79439
G1 X16.76 Y116.002 E76.83723
G1 X16.035 Y115.434 E76.88011
G1 X15.362 Y114.805 E76.92301
G1 X14.747 Y114.121 E76.96584
G1 X14.193 Y113.386 E77.0087
G1 X13.705 Y112.605 E77.05158
G1 X13.286 Y111.785 E77.09446
G1 X12.94 Y110.932 E77.13732
G1 X12.67 Y110.052 E77.18018
G1 X12.477 Y109.151 E77.22309
G1 X12.363 Y108.238 E77.26593
G1 X12.332 Y107.667 E77.29256
G1 X12.323 Y107.334 E77.30807
G1 X12.319 Y107.048 E77.32139
G1 X12.32 Y25.921 E81.099
G1 X12.329 Y25.256 E81.12997
G1 X12.381 Y24.336 E81.17288
G1 X12.513 Y23.425 E81.21574
G1 X12.724 Y22.529 E81.2586
G1 X13.011 Y21.654 E81.30148
G1 X13.374 Y20.808 E81.34435
G1 X13.808 Y19.996 E81.38722
G1 X14.311 Y19.225 E81.43009
G1 X14.88 Y18.501 E81.47296
G1 X15.508 Y17.829 E81.51579
G1 X16.193 Y17.213 E81.55869
G0 F6000 X16.581 Y17.414
G1 F1200 X17.313 Y16.884 E81.60077
G1 X18.088 Y16.421 E81.64281
G1 X18.901 Y16.028 E81.68486
G1 X19.746 Y15.708 E81.72693
G1 X20.615 Y15.465 E81.76895
G1 X21.503 Y15.299 E81.81101
G1 X22.642 Y15.203 E81.86424
G1 X22.963 Y15.194 E81.87919
G1 X23.249 Y15.19 E81.89251
G1 X344.212 Y15.19 E96.83789
G1 X345.056 Y15.201 E96.87719
G1 X345.958 Y15.254 E96.91927
G1 X346.851 Y15.386 E96.9613
G1 X347.729 Y15.597 E97.00335
G1 X348.585 Y15.885 E97.0454
G1 X349.412 Y16.247 E97.08744
G1 X350.204 Y16.682 E97.12951
G1 X350.955 Y17.184 E97.17158
G1 X351.658 Y17.751 E97.21363
G1 X352.308 Y18.378 E97.25568
G1 X352.9 Y19.06 E97.29774
G1 X353.43 Y19.791 E97.33978
G1 X353.892 Y20.567 E97.38183
G1 X354.285 Y21.38 E97.42388
G1 X354.603 Y22.225 E97.46592
G1 X354.846 Y23.095 E97.50798
G1 X355.011 Y23.983 E97.55004
G1 X355.106 Y25.113 E97.60284
G1 X355.115 Y25.433 E97.61775
G1 X355.119 Y25.72 E97.63111
G1 X355.118 Y106.78 E101.40561
G1 X355.109 Y107.507 E101.43946
G1 X355.058 Y108.409 E101.48153
G1 X354.927 Y109.303 E101.5236
G1 X354.718 Y110.181 E101.56563
G1 X354.432 Y111.038 E101.6077
G1 X354.071 Y111.866 E101.64976
G1 X353.639 Y112.658 E101.69177
G1 X353.138 Y113.41 E101.73384
G1 X352.572 Y114.114 E101.7759
G1 X351.947 Y114.765 E101.81793
G1 X351.266 Y115.359 E101.86
G1 X350.535 Y115.89 E101.90207
G1 X349.761 Y116.354 E101.9441
G1 X348.948 Y116.748 E101.98616
G1 X348.104 Y117.068 E102.02819
G1 X347.234 Y117.313 E102.07028
G1 X346.347 Y117.479 E102.1123
G1 X345.196 Y117.577 E102.16609
G1 X344.875 Y117.586 E102.18104
G1 X344.589 Y117.59 E102.19436
G1 X23.494 Y117.589 E117.14589
G1 X22.796 Y117.58 E117.17839
G1 X21.895 Y117.529 E117.22041
G1 X21.001 Y117.397 E117.26249
G1 X20.123 Y117.188 E117.30452
G1 X19.266 Y116.901 E117.3466
G1 X18.439 Y116.54 E117.38862
G1 X17.646 Y116.107 E117.43069
G1 X16.895 Y115.606 E117.47273
G1 X16.191 Y115.04 E117.51479
G1 X15.54 Y114.414 E117.55685
G1 X14.947 Y113.733 E117.59889
G1 X14.417 Y113.002 E117.64094
G1 X13.953 Y112.227 E117.683
G1 X13.559 Y111.414 E117.72507
G1 X13.239 Y110.57 E117.7671
G1 X12.995 Y109.7 E117.80917
G1 X12.829 Y108.812 E117.85124
G1 X12.732 Y107.657 E117.90521
G1 X12.723 Y107.324 E117.92072
G1 X12.719 Y107.048 E117.93357
G1 X12.72 Y25.926 E121.71095
G1 X12.729 Y25.261 E121.74192
G1 X12.781 Y24.359 E121.78399
G1 X12.913 Y23.466 E121.82602
G1 X13.123 Y22.588 E121.86806
G1 X13.41 Y21.731 E121.91014
G1 X13.772 Y20.904 E121.95218
G1 X14.205 Y20.112 E121.99421
G1 X14.707 Y19.361 E122.03627
G1 X15.274 Y18.657 E122.07836
G1 X15.9 Y18.007 E122.12039
G1 X16.581 Y17.414 E122.16243
G1 F2700 E117.16243
;MESH:Grid.stl
G0 F6000 X32.766 Y27.043
G0 X33.419 Y26.09
G0 X33.899 Y26.331
G0 X33.908 Y26.062
G0 X43.464 Y26.062
G0 X43.924 Y35.918
G0 X63.496 Y36.434
G0 X63.956 Y45.99
G0 X83.528 Y46.505
G0 X83.988 Y56.061
G0 X103.56 Y56.577
G0 X104.02 Y66.133
G0 X123.593 Y66.648
G0 X124.053 Y76.204
G0 X143.625 Y76.72
G0 X144.085 Y86.276
G0 X163.657 Y86.791
G0 X164.117 Y96.347
G0 X183.689 Y96.862
G0 X184.149 Y106.718
G0 X193.705 Y106.718
G0 X193.877 Y106.59
;TYPE:WALL-OUTER
G1 F2700 E122.16243
G1 F1200 X193.877 Y96.69 E122.62342
G1 X183.977 Y96.69 E123.0844
G1 X183.977 Y106.59 E123.54539
G1 X193.877 Y106.59 E124.00637
G1 F2700 E119.00637
G0 F6000 X184.149 Y106.718
G0 X183.861 Y106.59
G1 F2700 E124.00637
G1 F1200 X183.861 Y96.69 E124.46736
G1 X173.961 Y96.69 E124.92835
G1 X173.961 Y106.59 E125.38933
G1 X183.861 Y106.59 E125.85032
G1 F2700 E120.85032
G0 F6000 X174.133 Y106.718
G0 X173.845 Y106.59
G1 F2700 E125.85032
G1 F1200 X173.845 Y96.69 E126.3113
G1 X163.945 Y96.69 E126.77229
G1 X163.945 Y106.59 E127.23327
G1 X173.845 Y106.59 E127.69426
G1 F2700 E122.69426
G0 F6000 X164.117 Y106.718
G0 X163.829 Y106.59
G1 F2700 E127.69426
G1 F1200 X163.829 Y96.69 E128.15524
G1 X153.929 Y96.69 E128.61623
G1 X153.929 Y106.59 E129.07721
G1 X163.829 Y106.59 E129.5382
G1 F2700 E124.5382
G0 F6000 X154.101 Y106.718
G0 X153.813 Y106.59
G1 F2700 E129.5382
G1 F1200 X153.813 Y96.69 E129.99919
G1 X143.913 Y96.69 E130.46017
G1 X143.913 Y106.59 E130.92116
G1 X153.813 Y106.59 E131.38214
G1 F2700 E126.38214
G0 F6000 X144.085 Y106.718
G0 X143.797 Y106.59
G1 F2700 E131.38214
G1 F1200 X143.797 Y96.69 E131.84313
G1 X133.897 Y96.69 E132.30411
G1 X133.897 Y106.59 E132.7651
G1 X143.797 Y106.59 E133.22608
G1 F2700 E128.22608
G0 F6000 X134.069 Y106.718
G0 X133.781 Y106.59
G1 F2700 E133.22608
G1 F1200 X133.781 Y96.69 E133.68707
G1 X123.881 Y96.69 E134.14805
G1 X123.881 Y106.59 E134.60904
G1 X133.781 Y106.59 E135.07003
G1 F2700 E130.07003
G0 F6000 X124.053 Y106.718
G0 X123.765 Y106.59
G1 F2700 E135.07003
G1 F1200 X123.765 Y96.69 E135.53101
G1 X113.865 Y96.69 E135.992
G1 X113.865 Y106.59 E136.45298
G1 X123.765 Y106.59 E136.91397
G1 F2700 E131.91397
G0 F6000 X114.037 Y106.718
G0 X113.748 Y106.59
G1 F2700 E136.91397
G1 F1200 X113.748 Y96.69 E137.37495
G1 X103.848 Y96.69 E137.83594
G1 X103.848 Y106.59 E138.29692
G1 X113.748 Y106.59 E138.75791
G1 F2700 E133.75791
G0 F6000 X104.02 Y106.718
G0 X103.732 Y106.59
G1 F2700 E138.75791
G1 F1200 X103.732 Y96.69 E139.2189
G1 X93.832 Y96.69 E139.67988
G1 X93.832 Y106.59 E140.14087
G1 X103.732 Y106.59 E140.60185
G1 F2700 E135.60185
G0 F6000 X94.004 Y106.718
G0 X93.716 Y106.59
G1 F2700 E140.60185
G1 F1200 X93.716 Y96.69 E141.06284
G1 X83.816 Y96.69 E141.52382
G1 X83.816 Y106.59 E141.98481
G1 X93.716 Y106.59 E142.44579
G1 F2700 E137.44579
G0 F6000 X83.988 Y106.718
G0 X83.7 Y106.59
G1 F2700 E142.44579
G1 F1200 X83.7 Y96.69 E142.90678
G1 X73.8 Y96.69 E143.36776
G1 X73.8 Y106.59 E143.82875
G1 X83.7 Y106.59 E144.28974
G1 F2700 E139.28974
G0 F6000 X73.972 Y106.718
G0 X73.684 Y106.59
G1 F2700 E144.28974
G1 F1200 X73.684 Y96.69 E144.75072
G1 X63.784 Y96.69 E145.21171
G1 X63.784 Y106.59 E145.67269
G1 X73.684 Y106.59 E146.13368
G1 F2700 E141.13368
G0 F6000 X63.956 Y106.718
G0 X63.668 Y106.59
G1 F2700 E146.13368
G1 F1200 X63.668 Y96.69 E146.59466
G1 X53.768 Y96.69 E147.05565
G1 X53.768 Y106.59 E147.51663
G1 X63.668 Y106.59 E147.97762
G1 F2700 E142.97762
G0 F6000 X53.94 Y106.718
G0 X53.652 Y106.59
G1 F2700 E147.97762
G1 F1200 X53.652 Y96.69 E148.4386
G1 X43.752 Y96.69 E148.89959
G1 X43.752 Y106.59 E149.36058
G1 X53.652 Y106.59 E149.82156
G1 F2700 E144.82156
G0 F6000 X43.924 Y106.718
G0 X43.636 Y106.59
G1 F2700 E149.82156
G1 F1200 X43.636 Y96.69 E150.28255
G1 X33.736 Y96.69 E150.74353
G1 X33.736 Y106.59 E151.20452
G1 X43.636 Y106.59 E151.6655
G1 F2700 E146.6655
G0 F6000 X43.464 Y76.72
G0 X33.908 Y76.204
G0 X33.619 Y36.09
G1 F2700 E151.6655
G1 F1200 X33.619 Y26.19 E152.12649
G1 X23.719 Y26.19 E152.58747
G1 X23.719 Y36.09 E153.04846
G1 X33.619 Y36.09 E153.50944
G1 F2700 E148.50944
G0 F6000 X43.636 Y36.09
G1 F2700 E153.50944
G1 F1200 X43.636 Y26.19 E153.97043
G1 X33.736 Y26.19 E154.43142
G1 X33.736 Y36.09 E154.8924
G1 X43.636 Y36.09 E155.35339
G1 F2700 E150.35339
G0 F6000 X53.652 Y36.09
G1 F2700 E155.35339
G1 F1200 X53.652 Y26.19 E155.81437
G1 X43.752 Y26.19 E156.27536
G1 X43.752 Y36.09 E156.73634
G1 X53.652 Y36.09 E157.19733
G1 F2700 E152.19733
G0 F6000 X63.668 Y36.09
G1 F2700 E157.19733
G1 F1200 X63.668 Y26.19 E157.65831
G1 X53.768 Y26.19 E158.1193
G1 X53.768 Y36.09 E158.58028
G1 X63.668 Y36.09 E159.04127
G1 F2700 E154.04127
G0 F6000 X73.684 Y36.09
G1 F2700 E159.04127
G1 F1200 X73.684 Y26.19 E159.50226
G1 X63.784 Y26.19 E159.96324
G1 X63.784 Y36.09 E160.42423
G1 X73.684 Y36.09 E160.88521
G1 F2700 E155.88521
G0 F6000 X83.7 Y36.09
G1 F2700 E160.88521
G1 F1200 X83.7 Y26.19 E161.3462
G1 X73.8 Y26.19 E161.80718
G1 X73.8 Y36.09 E162.26817
G1 X83.7 Y36.09 E162.72915
G1 F2700 E157.72915
G0 F6000 X93.716 Y36.09
G1 F2700 E162.72915
G1 F1200 X93.716 Y26.19 E163.19014
G1 X83.816 Y26.19 E163.65113
G1 X83.816 Y36.09 E164.11211
G1 X93.716 Y36.09 E164.5731
G1 F2700 E159.5731
G0 F6000 X103.732 Y36.09
G1 F2700 E164.5731
G1 F1200 X103.732 Y26.19 E165.03408
G1 X93.832 Y26.19 E165.49507
G1 X93.832 Y36.09 E165.95605
G1 X103.732 Y36.09 E166.41704
G1 F2700 E161.41704
G0 F6000 X113.748 Y36.09
G1 F2700 E166.41704
G1 F1200 X113.748 Y26.19 E166.87802
G1 X103.848 Y26.19 E167.33901
G1 X103.848 Y36.09 E167.79999
G1 X113.748 Y36.09 E168.26098
G1 F2700 E163.26098
G0 F6000 X123.765 Y36.09
G1 F2700 E168.26098
G1 F1200 X123.765 Y26.19 E168.72197
G1 X113.865 Y26.19 E169.18295
G1 X113.865 Y36.09 E169.64394
G1 X123.765 Y36.09 E170.10492
G1 F2700 E165.10492
G0 F6000 X133.781 Y36.09
G1 F2700 E170.10492
G1 F1200 X133.781 Y26.19 E170.56591
G1 X123.881 Y26.19 E171.02689
G1 X123.881 Y36.09 E171.48788
G1 X133.781 Y36.09 E171.94886
G1 F2700 E166.94886
G0 F6000 X143.797 Y36.09
G1 F2700 E171.94886
G1 F1200 X143.797 Y26.19 E172.40985
G1 X133.897 Y26.19 E172.87083
G1 X133.897 Y36.09 E173.33182
G1 X143.797 Y36.09 E173.79281
G1 F2700 E168.79281
G0 F6000 X153.813 Y36.09
G1 F2700 E173.79281
G1 F1200 X153.813 Y26.19 E174.25379
G1 X143.913 Y26.19 E174.71478
G1 X143.913 Y36.09 E175.17576
G1 X153.813 Y36.09 E175.63675
G1 F2700 E170.63675
G0 F6000 X163.829 Y36.09
G1 F2700 E175.63675
G1 F1200 X163.829 Y26.19 E176.09773
G1 X153.929 Y26.19 E176.55872
G1 X153.929 Y36.09 E177.0197
G1 X163.829 Y36.09 E177.48069
G1 F2700 E172.48069
G0 F6000 X173.845 Y36.09
G1 F2700 E177.48069
G1 F1200 X173.845 Y26.19 E177.94167
G1 X163.945 Y26.19 E178.40266
G1 X163.945 Y36.09 E178.86365
G1 X173.845 Y36.09 E179.32463
G1 F2700 E174.32463
G0 F6000 X183.861 Y36.09
G1 F2700 E179.32463
G1 F1200 X183.861 Y26.19 E179.78562
G1 X173.961 Y26.19 E180.2466
G1 X173.961 Y36.09 E180.70759
G1 X183.861 Y36.09 E181.16857
G1 F2700 E176.16857
G0 F6000 X193.877 Y36.09
G1 F2700 E181.16857
G1 F1200 X193.877 Y26.19 E181.62956
G1 X183.977 Y26.19 E182.09054
G1 X183.977 Y36.09 E182.55153
G1 X193.877 Y36.09 E183.01251
G1 F2700 E178.01251
G0 F6000 X203.894 Y36.09
G1 F2700 E183.01251
G1 F1200 X203.894 Y26.19 E183.4735
G1 X193.994 Y26.19 E183.93449
